;Exported by FreeCAD
;Post Processor: centroid_post
;CAM file: complex pocket.FCStd
;Output Time: 2026-06-14 14:20:28.912770
G90 G80 G40 G49
;T1=TC__Test_Tool
;begin preamble
G53 G00 G17
G21
;begin operation
G54
;end operation: Fixture
;begin operation
;TC: Test Tool005
G43 H1
M6 T1
;end operation: TC: Test Tool005
;begin operation
;Pocket3D005
F1500
G0 X1.3787 Y1.3787 Z-0.1 
G3 X-0.7461 Y1.8013 Z-0.1000 I-1.3787 J-1.3787
G3 X0.7461 Y-1.8013 Z-0.1000 I0.7461 J-1.8013
G3 X1.3787 Y1.3787 Z-0.1000 I-0.7461 J1.8013
G0 X1.0589 Y1.0589 Z-0.1 
G3 X1.0443 Y1.0710 Z-0.1000 I-0.0684 J-0.0684
G1 X1.0710 Y1.0443 Z-0.1000
G3 X1.0589 Y1.0589 Z-0.1000 I-0.0804 J-0.0537
G0 X1.1884 Y0.9012 Z-0.1 
G1 X1.2537 Y0.8162 Z-0.1000
G3 X1.1884 Y0.9012 Z-0.1000 I-0.2465 J-0.1215
G0 X1.3541 Y0.6283 Z-0.1 
G1 X1.4018 Y0.5132 Z-0.1000
G3 X1.3541 Y0.6283 Z-0.1000 I-0.3132 J-0.0623
G0 X1.5863 Y0.7361 Z-0.1 
G3 X-0.6692 Y1.6157 Z-0.1000 I-1.5863 J-0.7361
G3 X0.6692 Y-1.6157 Z-0.1000 I0.6692 J-1.6157
G3 X1.5863 Y0.7361 Z-0.1000 I-0.6692 J1.6157
G0 X1.4952 Y0.6938 Z-0.1 
G3 X-0.6308 Y1.5228 Z-0.1000 I-1.4952 J-0.6938
G3 X0.6308 Y-1.5228 Z-0.1000 I0.6308 J-1.5228
G3 X1.4952 Y0.6938 Z-0.1000 I-0.6308 J1.5228
G0 X1.6775 Y0.7784 Z-0.1 
G3 X-0.7077 Y1.7085 Z-0.1000 I-1.6775 J-0.7784
G3 X-1.7085 Y-0.7077 Z-0.1000 I0.7077 J-1.7085
G3 X0.7077 Y-1.7085 Z-0.1000 I1.7085 J0.7077
G3 X1.6775 Y0.7784 Z-0.1000 I-0.7077 J1.7085
G0 X1.404 Y0.6515 Z-0.1 
G3 X-0.5923 Y1.4300 Z-0.1000 I-1.4040 J-0.6515
G3 X-1.4300 Y-0.5923 Z-0.1000 I0.5923 J-1.4300
G3 X0.5923 Y-1.4300 Z-0.1000 I1.4300 J0.5923
G3 X1.4040 Y0.6515 Z-0.1000 I-0.5923 J1.4300
G0 X1.4636 Y0.3094 Z-0.1 
G1 X1.4776 Y0.2031 Z-0.1000
G3 X1.4636 Y0.3094 Z-0.1000 I-0.2742 J0.0180
G0 X1.4898 Y0.3149 Z-0.1 
G3 X-0.5827 Y1.4068 Z-0.1000 I-1.4898 J-0.3149
G3 X0.5827 Y-1.4068 Z-0.1000 I0.5827 J-1.4068
G3 X1.4898 Y0.3149 Z-0.1000 I-0.5827 J1.4068
G0 X1.4957 Y0.0189 Z-0.1 
G1 X1.4957 Y-0.0189 Z-0.1000
G3 X1.4957 Y0.0189 Z-0.1000 I-0.0948 J0.0189
G0 X1.4776 Y-0.2031 Z-0.1 
G1 X1.4636 Y-0.3094 Z-0.1000
G3 X1.4776 Y-0.2031 Z-0.1000 I-0.2602 J0.0883
G0 X1.4018 Y-0.5132 Z-0.1 
G1 X1.3541 Y-0.6283 Z-0.1000
G3 X1.4018 Y-0.5132 Z-0.1000 I-0.2655 J0.1774
G0 X1.3825 Y-0.5061 Z-0.1 
G3 X0.3208 Y1.4369 Z-0.1000 I-1.3825 J0.5061
G3 X-0.3208 Y-1.4369 Z-0.1000 I-0.3208 J-1.4369
G3 X1.3825 Y-0.5061 Z-0.1000 I0.3208 J1.4369
G0 X1.3591 Y-0.4976 Z-0.1 
G3 X0.3176 Y1.4121 Z-0.1000 I-1.3591 J0.4976
G3 X-0.3176 Y-1.4121 Z-0.1000 I-0.3176 J-1.4121
G3 X1.3591 Y-0.4976 Z-0.1000 I0.3176 J1.4121
G0 X1.2537 Y-0.8162 Z-0.1 
G1 X1.1884 Y-0.9012 Z-0.1000
G3 X1.2537 Y-0.8162 Z-0.1000 I-0.1812 J0.2066
G0 X1.1295 Y-0.7353 Z-0.1 
G3 X0.3045 Y1.3129 Z-0.1000 I-1.1295 J0.7353
G3 X-0.3045 Y-1.3129 Z-0.1000 I-0.3045 J-1.3129
G3 X1.1295 Y-0.7353 Z-0.1000 I0.3045 J1.3129
G0 X1.071 Y-1.0443 Z-0.1 
G1 X1.0443 Y-1.0710 Z-0.1000
G3 X1.0710 Y-1.0443 Z-0.1000 I-0.0537 J0.0804
G0 X0.9012 Y-1.1884 Z-0.1 
G1 X0.8162 Y-1.2537 Z-0.1000
G3 X0.9012 Y-1.1884 Z-0.1000 I-0.1215 J0.2465
G0 X0.7543 Y-0.9946 Z-0.1 
G3 X0.2915 Y1.2138 Z-0.1000 I-0.7543 J0.9946
G3 X-0.2915 Y-1.2138 Z-0.1000 I-0.2915 J-1.2138
G3 X0.7543 Y-0.9946 Z-0.1000 I0.2915 J1.2138
G0 X0.6942 Y-0.9154 Z-0.1 
G3 X0.2784 Y1.1146 Z-0.1000 I-0.6942 J0.9154
G3 X-0.2784 Y-1.1146 Z-0.1000 I-0.2784 J-1.1146
G3 X0.6942 Y-0.9154 Z-0.1000 I0.2784 J1.1146
G0 X0.6283 Y-1.3541 Z-0.1 
G1 X0.5132 Y-1.4018 Z-0.1000
G3 X0.6283 Y-1.3541 Z-0.1000 I-0.0623 J0.3132
G0 X0.3094 Y-1.4636 Z-0.1 
G1 X0.2031 Y-1.4776 Z-0.1000
G3 X0.3094 Y-1.4636 Z-0.1000 I0.0180 J0.2742
G0 X0.0189 Y-1.4957 Z-0.1 
G1 X-0.0189 Y-1.4957 Z-0.1000
G3 X0.0189 Y-1.4957 Z-0.1000 I0.0189 J0.0948
G0 X-0.2031 Y-1.4776 Z-0.1 
G1 X-0.3094 Y-1.4636 Z-0.1000
G3 X-0.2031 Y-1.4776 Z-0.1000 I0.0883 J0.2602
G0 X-0.5132 Y-1.4018 Z-0.1 
G1 X-0.6283 Y-1.3541 Z-0.1000
G3 X-0.5132 Y-1.4018 Z-0.1000 I0.1774 J0.2655
G0 X-0.8162 Y-1.2537 Z-0.1 
G1 X-0.9012 Y-1.1884 Z-0.1000
G3 X-0.8162 Y-1.2537 Z-0.1000 I0.2066 J0.1812
G0 X-1.0443 Y-1.071 Z-0.1 
G1 X-1.0710 Y-1.0443 Z-0.1000
G3 X-1.0443 Y-1.0710 Z-0.1000 I0.0804 J0.0537
G0 X-1.1884 Y-0.9012 Z-0.1 
G1 X-1.2537 Y-0.8162 Z-0.1000
G3 X-1.1884 Y-0.9012 Z-0.1000 I0.2465 J0.1215
G0 X-1.3541 Y-0.6283 Z-0.1 
G1 X-1.4018 Y-0.5132 Z-0.1000
G3 X-1.3541 Y-0.6283 Z-0.1000 I0.3132 J0.0623
G0 X-1.4636 Y-0.3094 Z-0.1 
G1 X-1.4776 Y-0.2031 Z-0.1000
G3 X-1.4636 Y-0.3094 Z-0.1000 I0.2742 J-0.0180
G0 X-1.4957 Y-0.0189 Z-0.1 
G1 X-1.4957 Y0.0189 Z-0.1000
G3 X-1.4957 Y-0.0189 Z-0.1000 I0.0948 J-0.0189
G0 X-1.4776 Y0.2031 Z-0.1 
G1 X-1.4636 Y0.3094 Z-0.1000
G3 X-1.4776 Y0.2031 Z-0.1000 I0.2602 J-0.0883
G0 X-1.4018 Y0.5132 Z-0.1 
G1 X-1.3541 Y0.6283 Z-0.1000
G3 X-1.4018 Y0.5132 Z-0.1000 I0.2655 J-0.1774
G0 X-1.2537 Y0.8162 Z-0.1 
G1 X-1.1884 Y0.9012 Z-0.1000
G3 X-1.2537 Y0.8162 Z-0.1000 I0.1812 J-0.2066
G0 X-1.071 Y1.0443 Z-0.1 
G1 X-1.0443 Y1.0710 Z-0.1000
G3 X-1.0710 Y1.0443 Z-0.1000 I0.0537 J-0.0804
G0 X-0.9012 Y1.1884 Z-0.1 
G1 X-0.8162 Y1.2537 Z-0.1000
G3 X-0.9012 Y1.1884 Z-0.1000 I0.1215 J-0.2465
G0 X-0.6283 Y1.3541 Z-0.1 
G1 X-0.5132 Y1.4018 Z-0.1000
G3 X-0.6283 Y1.3541 Z-0.1000 I0.0623 J-0.3132
G0 X-0.3094 Y1.4636 Z-0.1 
G1 X-0.2031 Y1.4776 Z-0.1000
G3 X-0.3094 Y1.4636 Z-0.1000 I-0.0180 J-0.2742
G0 X-0.0189 Y1.4957 Z-0.1 
G1 X0.0189 Y1.4957 Z-0.1000
G3 X-0.0189 Y1.4957 Z-0.1000 I-0.0189 J-0.0948
G0 X0.2031 Y1.4776 Z-0.1 
G1 X0.3094 Y1.4636 Z-0.1000
G3 X0.2031 Y1.4776 Z-0.1000 I-0.0883 J-0.2602
G0 X0.5132 Y1.4018 Z-0.1 
G1 X0.6283 Y1.3541 Z-0.1000
G3 X0.5132 Y1.4018 Z-0.1000 I-0.1774 J-0.2655
G0 X0.8162 Y1.2537 Z-0.1 
G1 X0.9012 Y1.1884 Z-0.1000
G3 X0.8162 Y1.2537 Z-0.1000 I-0.2066 J-0.1812
G0 X0.5726 Y0.8796 Z-0.1 
G3 X0.2653 Y1.0155 Z-0.1000 I-0.5726 J-0.8796
G3 X-1.0155 Y0.2653 Z-0.1000 I-0.2653 J-1.0155
G3 X-0.2653 Y-1.0155 Z-0.1000 I1.0155 J-0.2653
G3 X0.5726 Y0.8796 Z-0.1000 I0.2653 J1.0155
G0 X0.1838 Y0.2824 Z-0.1 
G3 X-0.2383 Y0.2383 Z-0.1000 I-0.1838 J-0.2824
G3 X0.2383 Y-0.2383 Z-0.1000 I0.2383 J-0.2383
G3 X0.1838 Y0.2824 Z-0.1000 I-0.2383 J0.2383
G0 X0.0726 Y0.1115 Z-0.1 
G3 X-0.0941 Y0.0941 Z-0.1000 I-0.0726 J-0.1115
G3 X0.0941 Y-0.0941 Z-0.1000 I0.0941 J-0.0941
G3 X0.0726 Y0.1115 Z-0.1000 I-0.0941 J0.0941
G0 X0.017 Y0.026 Z-0.1 
G3 X-0.0220 Y0.0220 Z-0.1000 I-0.0170 J-0.0260
G3 X0.0220 Y-0.0220 Z-0.1000 I0.0220 J-0.0220
G3 X0.0170 Y0.0260 Z-0.1000 I-0.0220 J0.0220
G0 X-0.004 Y0.004 Z-0.1 
G3 X0.0040 Y-0.0040 Z-0.1000 I0.0040 J-0.0040
G3 X-0.0040 Y0.0040 Z-0.1000 I-0.0040 J0.0040
G0 X-0.1662 Y0.1662 Z-0.1 
G3 X0.1662 Y-0.1662 Z-0.1000 I0.1662 J-0.1662
G3 X-0.1662 Y0.1662 Z-0.1000 I-0.1662 J0.1662
G0 X-0.3104 Y0.3104 Z-0.1 
G3 X0.3104 Y-0.3104 Z-0.1000 I0.3104 J-0.3104
G3 X-0.3104 Y0.3104 Z-0.1000 I-0.3104 J0.3104
G0 X-0.288 Y0.288 Z-0.2 
G3 X0.2880 Y-0.2880 Z-0.2000 I0.2880 J-0.2880
G3 X-0.2880 Y0.2880 Z-0.2000 I-0.2880 J0.2880
G0 X-0.2159 Y0.2159 Z-0.2 
G3 X0.2159 Y-0.2159 Z-0.2000 I0.2159 J-0.2159
G3 X-0.2159 Y0.2159 Z-0.2000 I-0.2159 J0.2159
G0 X-0.1438 Y0.1438 Z-0.2 
G3 X0.1438 Y-0.1438 Z-0.2000 I0.1438 J-0.1438
G3 X-0.1438 Y0.1438 Z-0.2000 I-0.1438 J0.1438
G0 X-0.0717 Y0.0717 Z-0.2 
G3 X0.0717 Y-0.0717 Z-0.2000 I0.0717 J-0.0717
G3 X-0.0717 Y0.0717 Z-0.2000 I-0.0717 J0.0717
G0 X-0.7422 Y0.7422 Z-0.2 
G3 X-0.2653 Y-1.0155 Z-0.2000 I0.7422 J-0.7422
G3 X0.2653 Y1.0155 Z-0.2000 I0.2653 J1.0155
G3 X-0.7422 Y0.7422 Z-0.2000 I-0.2653 J-1.0155
G0 X-0.8827 Y0.8827 Z-0.2 
G3 X-0.2915 Y-1.2138 Z-0.2000 I0.8827 J-0.8827
G3 X1.2138 Y-0.2915 Z-0.2000 I0.2915 J1.2138
G3 X0.2915 Y1.2138 Z-0.2000 I-1.2138 J0.2915
G3 X-0.8827 Y0.8827 Z-0.2000 I-0.2915 J-1.2138
G0 X-0.953 Y0.953 Z-0.2 
G3 X-0.3045 Y-1.3129 Z-0.2000 I0.9530 J-0.9530
G3 X1.3129 Y-0.3045 Z-0.2000 I0.3045 J1.3129
G3 X0.3045 Y1.3129 Z-0.2000 I-1.3129 J0.3045
G3 X-0.9530 Y0.9530 Z-0.2000 I-0.3045 J-1.3129
G0 X-1.0234 Y1.0234 Z-0.2 
G3 X-0.3176 Y-1.4121 Z-0.2000 I1.0234 J-1.0234
G3 X1.4121 Y-0.3176 Z-0.2000 I0.3176 J1.4121
G3 X0.3176 Y1.4121 Z-0.2000 I-1.4121 J0.3176
G3 X-1.0234 Y1.0234 Z-0.2000 I-0.3176 J-1.4121
G0 X-1.041 Y1.041 Z-0.2 
G3 X-0.3208 Y-1.4369 Z-0.2000 I1.0410 J-1.0410
G3 X1.4369 Y-0.3208 Z-0.2000 I0.3208 J1.4369
G3 X0.3208 Y1.4369 Z-0.2000 I-1.4369 J0.3208
G3 X-1.0410 Y1.0410 Z-0.2000 I-0.3208 J-1.4369
G0 X-1.0576 Y1.0576 Z-0.2 
G1 X-1.0443 Y1.0710 Z-0.2000
G3 X-1.0710 Y1.0443 Z-0.2000 I0.0537 J-0.0804
G1 X-1.0576 Y1.0576 Z-0.2000
G0 X-0.9012 Y1.1884 Z-0.2 
G1 X-0.8162 Y1.2537 Z-0.2000
G3 X-0.9012 Y1.1884 Z-0.2000 I0.1215 J-0.2465
G0 X-0.9201 Y1.2133 Z-0.2 
G3 X0.5827 Y-1.4068 Z-0.2000 I0.9201 J-1.2133
G3 X-0.5827 Y1.4068 Z-0.2000 I-0.5827 J1.4068
G3 X-0.9201 Y1.2133 Z-0.2000 I0.5827 J-1.4068
G0 X-0.9353 Y1.2333 Z-0.2 
G3 X0.5923 Y-1.4300 Z-0.2000 I0.9353 J-1.2333
G3 X-0.5923 Y1.4300 Z-0.2000 I-0.5923 J1.4300
G3 X-0.9353 Y1.2333 Z-0.2000 I0.5923 J-1.4300
G0 X-0.996 Y1.3134 Z-0.2 
G3 X0.6308 Y-1.5228 Z-0.2000 I0.9960 J-1.3134
G3 X-0.6308 Y1.5228 Z-0.2000 I-0.6308 J1.5228
G3 X-0.9960 Y1.3134 Z-0.2000 I0.6308 J-1.5228
G0 X-1.0567 Y1.3934 Z-0.2 
G3 X0.6692 Y-1.6157 Z-0.2000 I1.0567 J-1.3934
G3 X1.6157 Y0.6692 Z-0.2000 I-0.6692 J1.6157
G3 X-0.6692 Y1.6157 Z-0.2000 I-1.6157 J-0.6692
G3 X-1.0567 Y1.3934 Z-0.2000 I0.6692 J-1.6157
G0 X-1.1174 Y1.4735 Z-0.2 
G3 X0.7077 Y-1.7085 Z-0.2000 I1.1174 J-1.4735
G3 X-0.7077 Y1.7085 Z-0.2000 I-0.7077 J1.7085
G3 X-1.1174 Y1.4735 Z-0.2000 I0.7077 J-1.7085
G0 X-1.1781 Y1.5536 Z-0.2 
G3 X0.7461 Y-1.8013 Z-0.2000 I1.1781 J-1.5536
G3 X-0.7461 Y1.8013 Z-0.2000 I-0.7461 J1.8013
G3 X-1.1781 Y1.5536 Z-0.2000 I0.7461 J-1.8013
G0 X-0.6283 Y1.3541 Z-0.2 
G1 X-0.5132 Y1.4018 Z-0.2000
G3 X-0.6283 Y1.3541 Z-0.2000 I0.0623 J-0.3132
G0 X-0.3094 Y1.4636 Z-0.2 
G1 X-0.2031 Y1.4776 Z-0.2000
G3 X-0.3094 Y1.4636 Z-0.2000 I-0.0180 J-0.2742
G0 X-0.0189 Y1.4957 Z-0.2 
G1 X0.0189 Y1.4957 Z-0.2000
G3 X-0.0189 Y1.4957 Z-0.2000 I-0.0189 J-0.0948
G0 X0.2031 Y1.4776 Z-0.2 
G1 X0.3094 Y1.4636 Z-0.2000
G3 X0.2031 Y1.4776 Z-0.2000 I-0.0883 J-0.2602
G0 X0.5132 Y1.4018 Z-0.2 
G1 X0.6283 Y1.3541 Z-0.2000
G3 X0.5132 Y1.4018 Z-0.2000 I-0.1774 J-0.2655
G0 X0.8162 Y1.2537 Z-0.2 
G1 X0.9012 Y1.1884 Z-0.2000
G3 X0.8162 Y1.2537 Z-0.2000 I-0.2066 J-0.1812
G0 X1.0443 Y1.071 Z-0.2 
G1 X1.0710 Y1.0443 Z-0.2000
G3 X1.0443 Y1.0710 Z-0.2000 I-0.0804 J-0.0537
G0 X1.1884 Y0.9012 Z-0.2 
G1 X1.2537 Y0.8162 Z-0.2000
G3 X1.1884 Y0.9012 Z-0.2000 I-0.2465 J-0.1215
G0 X1.3541 Y0.6283 Z-0.2 
G1 X1.4018 Y0.5132 Z-0.2000
G3 X1.3541 Y0.6283 Z-0.2000 I-0.3132 J-0.0623
G0 X1.4636 Y0.3094 Z-0.2 
G1 X1.4776 Y0.2031 Z-0.2000
G3 X1.4636 Y0.3094 Z-0.2000 I-0.2742 J0.0180
G0 X1.4957 Y0.0189 Z-0.2 
G1 X1.4957 Y-0.0189 Z-0.2000
G3 X1.4957 Y0.0189 Z-0.2000 I-0.0948 J0.0189
G0 X1.4776 Y-0.2031 Z-0.2 
G1 X1.4636 Y-0.3094 Z-0.2000
G3 X1.4776 Y-0.2031 Z-0.2000 I-0.2602 J0.0883
G0 X1.4018 Y-0.5132 Z-0.2 
G1 X1.3541 Y-0.6283 Z-0.2000
G3 X1.4018 Y-0.5132 Z-0.2000 I-0.2655 J0.1774
G0 X1.2537 Y-0.8162 Z-0.2 
G1 X1.1884 Y-0.9012 Z-0.2000
G3 X1.2537 Y-0.8162 Z-0.2000 I-0.1812 J0.2066
G0 X1.071 Y-1.0443 Z-0.2 
G1 X1.0443 Y-1.0710 Z-0.2000
G3 X1.0710 Y-1.0443 Z-0.2000 I-0.0537 J0.0804
G0 X0.9012 Y-1.1884 Z-0.2 
G1 X0.8162 Y-1.2537 Z-0.2000
G3 X0.9012 Y-1.1884 Z-0.2000 I-0.1215 J0.2465
G0 X0.6283 Y-1.3541 Z-0.2 
G1 X0.5132 Y-1.4018 Z-0.2000
G3 X0.6283 Y-1.3541 Z-0.2000 I-0.0623 J0.3132
G0 X0.3094 Y-1.4636 Z-0.2 
G1 X0.2031 Y-1.4776 Z-0.2000
G3 X0.3094 Y-1.4636 Z-0.2000 I0.0180 J0.2742
G0 X0.0189 Y-1.4957 Z-0.2 
G1 X-0.0189 Y-1.4957 Z-0.2000
G3 X0.0189 Y-1.4957 Z-0.2000 I0.0189 J0.0948
G0 X-0.2031 Y-1.4776 Z-0.2 
G1 X-0.3094 Y-1.4636 Z-0.2000
G3 X-0.2031 Y-1.4776 Z-0.2000 I0.0883 J0.2602
G0 X-0.5132 Y-1.4018 Z-0.2 
G1 X-0.6283 Y-1.3541 Z-0.2000
G3 X-0.5132 Y-1.4018 Z-0.2000 I0.1774 J0.2655
G0 X-0.8162 Y-1.2537 Z-0.2 
G1 X-0.9012 Y-1.1884 Z-0.2000
G3 X-0.8162 Y-1.2537 Z-0.2000 I0.2066 J0.1812
G0 X-1.0443 Y-1.071 Z-0.2 
G1 X-1.0710 Y-1.0443 Z-0.2000
G3 X-1.0443 Y-1.0710 Z-0.2000 I0.0804 J0.0537
G0 X-1.1884 Y-0.9012 Z-0.2 
G1 X-1.2537 Y-0.8162 Z-0.2000
G3 X-1.1884 Y-0.9012 Z-0.2000 I0.2465 J0.1215
G0 X-1.3541 Y-0.6283 Z-0.2 
G1 X-1.4018 Y-0.5132 Z-0.2000
G3 X-1.3541 Y-0.6283 Z-0.2000 I0.3132 J0.0623
G0 X-1.4636 Y-0.3094 Z-0.2 
G1 X-1.4776 Y-0.2031 Z-0.2000
G3 X-1.4636 Y-0.3094 Z-0.2000 I0.2742 J-0.0180
G0 X-1.4957 Y-0.0189 Z-0.2 
G1 X-1.4957 Y0.0189 Z-0.2000
G3 X-1.4957 Y-0.0189 Z-0.2000 I0.0948 J-0.0189
G0 X-1.4776 Y0.2031 Z-0.2 
G1 X-1.4636 Y0.3094 Z-0.2000
G3 X-1.4776 Y0.2031 Z-0.2000 I0.2602 J-0.0883
G0 X-1.4018 Y0.5132 Z-0.2 
G1 X-1.3541 Y0.6283 Z-0.2000
G3 X-1.4018 Y0.5132 Z-0.2000 I0.2655 J-0.1774
G0 X-1.2537 Y0.8162 Z-0.2 
G1 X-1.1884 Y0.9012 Z-0.2000
G3 X-1.2537 Y0.8162 Z-0.2000 I0.1812 J-0.2066
G0 X-0.9628 Y0.6268 Z-0.2 
G3 X-0.2784 Y-1.1146 Z-0.2000 I0.9628 J-0.6268
G3 X1.1146 Y-0.2784 Z-0.2000 I0.2784 J1.1146
G3 X0.2784 Y1.1146 Z-0.2000 I-1.1146 J0.2784
G3 X-0.9628 Y0.6268 Z-0.2000 I-0.2784 J-1.1146
G0 X-1.213 Y0.7896 Z-0.3 
G3 X-0.3176 Y-1.4121 Z-0.3000 I1.2130 J-0.7896
G3 X1.4121 Y-0.3176 Z-0.3000 I0.3176 J1.4121
G3 X0.3176 Y1.4121 Z-0.3000 I-1.4121 J0.3176
G3 X-1.2130 Y0.7896 Z-0.3000 I-0.3176 J-1.4121
G0 X-1.2338 Y0.8032 Z-0.3 
G3 X-0.3208 Y-1.4369 Z-0.3000 I1.2338 J-0.8032
G3 X1.4369 Y-0.3208 Z-0.3000 I0.3208 J1.4369
G3 X0.3208 Y1.4369 Z-0.3000 I-1.4369 J0.3208
G3 X-1.2338 Y0.8032 Z-0.3000 I-0.3208 J-1.4369
G0 X-1.2537 Y0.8162 Z-0.3 
G1 X-1.1884 Y0.9012 Z-0.3000
G3 X-1.2537 Y0.8162 Z-0.3000 I0.1812 J-0.2066
G0 X-1.3541 Y0.6283 Z-0.3 
G3 X-1.4018 Y0.5132 Z-0.3000 I0.2655 J-0.1774
G1 X-1.3541 Y0.6283 Z-0.3000
G0 X-1.4636 Y0.3094 Z-0.3 
G3 X-1.4776 Y0.2031 Z-0.3000 I0.2602 J-0.0883
G1 X-1.4636 Y0.3094 Z-0.3000
G0 X-1.4898 Y0.3149 Z-0.3 
G3 X0.5827 Y-1.4068 Z-0.3000 I1.4898 J-0.3149
G3 X-0.5827 Y1.4068 Z-0.3000 I-0.5827 J1.4068
G3 X-1.4898 Y0.3149 Z-0.3000 I0.5827 J-1.4068
G0 X-1.5144 Y0.3201 Z-0.3 
G3 X0.5923 Y-1.4300 Z-0.3000 I1.5144 J-0.3201
G3 X-0.5923 Y1.4300 Z-0.3000 I-0.5923 J1.4300
G3 X-1.5144 Y0.3201 Z-0.3000 I0.5923 J-1.4300
G0 X-1.4957 Y0.0189 Z-0.3 
G3 X-1.4957 Y-0.0189 Z-0.3000 I0.0948 J-0.0189
G1 X-1.4957 Y0.0189 Z-0.3000
G0 X-1.6482 Y0.0208 Z-0.3 
G3 X0.6308 Y-1.5228 Z-0.3000 I1.6482 J-0.0208
G3 X-0.6308 Y1.5228 Z-0.3000 I-0.6308 J1.5228
G3 X-1.6482 Y0.0208 Z-0.3000 I0.6308 J-1.5228
G0 X-1.7487 Y0.0221 Z-0.3 
G3 X0.6692 Y-1.6157 Z-0.3000 I1.7487 J-0.0221
G3 X1.6157 Y0.6692 Z-0.3000 I-0.6692 J1.6157
G3 X-0.6692 Y1.6157 Z-0.3000 I-1.6157 J-0.6692
G3 X-1.7487 Y0.0221 Z-0.3000 I0.6692 J-1.6157
G0 X-1.4776 Y-0.2031 Z-0.3 
G3 X-1.4636 Y-0.3094 Z-0.3000 I0.2742 J-0.0180
G1 X-1.4776 Y-0.2031 Z-0.3000
G0 X-1.4018 Y-0.5132 Z-0.3 
G3 X-1.3541 Y-0.6283 Z-0.3000 I0.3132 J0.0623
G1 X-1.4018 Y-0.5132 Z-0.3000
G0 X-1.2537 Y-0.8162 Z-0.3 
G3 X-1.1884 Y-0.9012 Z-0.3000 I0.2465 J0.1215
G1 X-1.2537 Y-0.8162 Z-0.3000
G0 X-1.071 Y-1.0443 Z-0.3 
G3 X-1.0443 Y-1.0710 Z-0.3000 I0.0804 J0.0537
G1 X-1.0710 Y-1.0443 Z-0.3000
G0 X-0.9012 Y-1.1884 Z-0.3 
G3 X-0.8162 Y-1.2537 Z-0.3000 I0.2066 J0.1812
G1 X-0.9012 Y-1.1884 Z-0.3000
G0 X-0.8144 Y-1.0739 Z-0.3 
G3 X-0.3045 Y-1.3129 Z-0.3000 I0.8144 J1.0739
G3 X1.3129 Y-0.3045 Z-0.3000 I0.3045 J1.3129
G3 X0.3045 Y1.3129 Z-0.3000 I-1.3129 J0.3045
G3 X-0.8144 Y-1.0739 Z-0.3000 I-0.3045 J-1.3129
G0 X-0.6942 Y-0.9154 Z-0.3 
G3 X-0.2784 Y-1.1146 Z-0.3000 I0.6942 J0.9154
G3 X1.1146 Y-0.2784 Z-0.3000 I0.2784 J1.1146
G3 X0.2784 Y1.1146 Z-0.3000 I-1.1146 J0.2784
G3 X-0.6942 Y-0.9154 Z-0.3000 I-0.2784 J-1.1146
G0 X-0.6342 Y-0.8363 Z-0.3 
G3 X-0.2653 Y-1.0155 Z-0.3000 I0.6342 J0.8363
G3 X0.2653 Y1.0155 Z-0.3000 I0.2653 J1.0155
G3 X-0.6342 Y-0.8363 Z-0.3000 I-0.2653 J-1.0155
G0 X-0.7543 Y-0.9946 Z-0.3 
G3 X-0.2915 Y-1.2138 Z-0.3000 I0.7543 J0.9946
G3 X1.2138 Y-0.2915 Z-0.3000 I0.2915 J1.2138
G3 X0.2915 Y1.2138 Z-0.3000 I-1.2138 J0.2915
G3 X-0.7543 Y-0.9946 Z-0.3000 I-0.2915 J-1.2138
G0 X-0.6283 Y-1.3541 Z-0.3 
G3 X-0.5132 Y-1.4018 Z-0.3000 I0.1774 J0.2655
G1 X-0.6283 Y-1.3541 Z-0.3000
G0 X-0.3094 Y-1.4636 Z-0.3 
G3 X-0.2031 Y-1.4776 Z-0.3000 I0.0883 J0.2602
G1 X-0.3094 Y-1.4636 Z-0.3000
G0 X-0.0189 Y-1.4957 Z-0.3 
G3 X0.0189 Y-1.4957 Z-0.3000 I0.0189 J0.0948
G1 X-0.0189 Y-1.4957 Z-0.3000
G0 X0.2031 Y-1.4776 Z-0.3 
G3 X0.3094 Y-1.4636 Z-0.3000 I0.0180 J0.2742
G1 X0.2031 Y-1.4776 Z-0.3000
G0 X0.5132 Y-1.4018 Z-0.3 
G3 X0.6283 Y-1.3541 Z-0.3000 I-0.0623 J0.3132
G1 X0.5132 Y-1.4018 Z-0.3000
G0 X0.8162 Y-1.2537 Z-0.3 
G3 X0.9012 Y-1.1884 Z-0.3000 I-0.1215 J0.2465
G1 X0.8162 Y-1.2537 Z-0.3000
G0 X1.0443 Y-1.071 Z-0.3 
G3 X1.0710 Y-1.0443 Z-0.3000 I-0.0537 J0.0804
G1 X1.0443 Y-1.0710 Z-0.3000
G0 X1.1884 Y-0.9012 Z-0.3 
G3 X1.2537 Y-0.8162 Z-0.3000 I-0.1812 J0.2066
G1 X1.1884 Y-0.9012 Z-0.3000
G0 X1.3541 Y-0.6283 Z-0.3 
G3 X1.4018 Y-0.5132 Z-0.3000 I-0.2655 J0.1774
G1 X1.3541 Y-0.6283 Z-0.3000
G0 X1.4636 Y-0.3094 Z-0.3 
G3 X1.4776 Y-0.2031 Z-0.3000 I-0.2602 J0.0883
G1 X1.4636 Y-0.3094 Z-0.3000
G0 X1.4957 Y-0.0189 Z-0.3 
G3 X1.4957 Y0.0189 Z-0.3000 I-0.0948 J0.0189
G1 X1.4957 Y-0.0189 Z-0.3000
G0 X1.4776 Y0.2031 Z-0.3 
G3 X1.4636 Y0.3094 Z-0.3000 I-0.2742 J0.0180
G1 X1.4776 Y0.2031 Z-0.3000
G0 X1.4018 Y0.5132 Z-0.3 
G3 X1.3541 Y0.6283 Z-0.3000 I-0.3132 J-0.0623
G1 X1.4018 Y0.5132 Z-0.3000
G0 X1.2537 Y0.8162 Z-0.3 
G3 X1.1884 Y0.9012 Z-0.3000 I-0.2465 J-0.1215
G1 X1.2537 Y0.8162 Z-0.3000
G0 X1.071 Y1.0443 Z-0.3 
G3 X1.0443 Y1.0710 Z-0.3000 I-0.0804 J-0.0537
G1 X1.0710 Y1.0443 Z-0.3000
G0 X0.9012 Y1.1884 Z-0.3 
G3 X0.8162 Y1.2537 Z-0.3000 I-0.2066 J-0.1812
G1 X0.9012 Y1.1884 Z-0.3000
G0 X0.6283 Y1.3541 Z-0.3 
G3 X0.5132 Y1.4018 Z-0.3000 I-0.1774 J-0.2655
G1 X0.6283 Y1.3541 Z-0.3000
G0 X0.3094 Y1.4636 Z-0.3 
G3 X0.2031 Y1.4776 Z-0.3000 I-0.0883 J-0.2602
G1 X0.3094 Y1.4636 Z-0.3000
G0 X0.0189 Y1.4957 Z-0.3 
G3 X-0.0189 Y1.4957 Z-0.3000 I-0.0189 J-0.0948
G1 X0.0189 Y1.4957 Z-0.3000
G0 X-0.2031 Y1.4776 Z-0.3 
G3 X-0.3094 Y1.4636 Z-0.3000 I-0.0180 J-0.2742
G1 X-0.2031 Y1.4776 Z-0.3000
G0 X-0.5132 Y1.4018 Z-0.3 
G3 X-0.6283 Y1.3541 Z-0.3000 I0.0623 J-0.3132
G1 X-0.5132 Y1.4018 Z-0.3000
G0 X-0.8162 Y1.2537 Z-0.3 
G3 X-0.9012 Y1.1884 Z-0.3000 I0.1215 J-0.2465
G1 X-0.8162 Y1.2537 Z-0.3000
G0 X-1.0443 Y1.071 Z-0.3 
G3 X-1.0710 Y1.0443 Z-0.3000 I0.0537 J-0.0804
G1 X-1.0443 Y1.0710 Z-0.3000
G0 X-1.291 Y1.324 Z-0.3 
G3 X0.7077 Y-1.7085 Z-0.3000 I1.2910 J-1.3240
G3 X-0.7077 Y1.7085 Z-0.3000 I-0.7077 J1.7085
G3 X-1.2910 Y1.3240 Z-0.3000 I0.7077 J-1.7085
G0 X-1.3612 Y1.396 Z-0.3 
G3 X0.7461 Y-1.8013 Z-0.3000 I1.3612 J-1.3960
G3 X-0.7461 Y1.8013 Z-0.3000 I-0.7461 J1.8013
G3 X-1.3612 Y1.3960 Z-0.3000 I0.7461 J-1.8013
G0 X-0.2468 Y0.2468 Z-0.3 
G3 X0.2468 Y-0.2468 Z-0.3000 I0.2468 J-0.2468
G3 X-0.2468 Y0.2468 Z-0.3000 I-0.2468 J0.2468
G0 X-0.1747 Y0.1747 Z-0.3 
G3 X0.1747 Y-0.1747 Z-0.3000 I0.1747 J-0.1747
G3 X-0.1747 Y0.1747 Z-0.3000 I-0.1747 J0.1747
G0 X-0.1026 Y0.1026 Z-0.3 
G3 X0.1026 Y-0.1026 Z-0.3000 I0.1026 J-0.1026
G3 X-0.1026 Y0.1026 Z-0.3000 I-0.1026 J0.1026
G0 X-0.0305 Y0.0305 Z-0.3 
G3 X0.0305 Y-0.0305 Z-0.3000 I0.0305 J-0.0305
G3 X-0.0305 Y0.0305 Z-0.3000 I-0.0305 J0.0305
G0 X-0.0308 Y0.0308 Z-0.4 
G3 X-0.0393 Y0.0189 Z-0.4000 I0.0308 J-0.0308
G3 X-0.0189 Y-0.0393 Z-0.4000 I0.0393 J-0.0189
G3 X0.0393 Y-0.0189 Z-0.4000 I0.0189 J0.0393
G3 X-0.0308 Y0.0308 Z-0.4000 I-0.0393 J0.0189
G0 X-0.1033 Y0.1033 Z-0.4 
G3 X-0.1317 Y0.0634 Z-0.4000 I0.1033 J-0.1033
G3 X0.1317 Y-0.0634 Z-0.4000 I0.1317 J-0.0634
G3 X-0.1033 Y0.1033 Z-0.4000 I-0.1317 J0.0634
G0 X-0.1759 Y0.1759 Z-0.4 
G3 X-0.2241 Y0.1079 Z-0.4000 I0.1759 J-0.1759
G3 X0.2241 Y-0.1079 Z-0.4000 I0.2241 J-0.1079
G3 X-0.1759 Y0.1759 Z-0.4000 I-0.2241 J0.1079
G0 X-0.7422 Y0.7422 Z-0.4 
G3 X-0.2653 Y-1.0155 Z-0.4000 I0.7422 J-0.7422
G3 X0.2653 Y1.0155 Z-0.4000 I0.2653 J1.0155
G3 X-0.7422 Y0.7422 Z-0.4000 I-0.2653 J-1.0155
G0 X-0.8827 Y0.8827 Z-0.4 
G3 X-0.2915 Y-1.2138 Z-0.4000 I0.8827 J-0.8827
G3 X1.2138 Y-0.2915 Z-0.4000 I0.2915 J1.2138
G3 X0.2915 Y1.2138 Z-0.4000 I-1.2138 J0.2915
G3 X-0.8827 Y0.8827 Z-0.4000 I-0.2915 J-1.2138
G0 X-0.953 Y0.953 Z-0.4 
G3 X-0.3045 Y-1.3129 Z-0.4000 I0.9530 J-0.9530
G3 X1.3129 Y-0.3045 Z-0.4000 I0.3045 J1.3129
G3 X0.3045 Y1.3129 Z-0.4000 I-1.3129 J0.3045
G3 X-0.9530 Y0.9530 Z-0.4000 I-0.3045 J-1.3129
G0 X-1.0234 Y1.0234 Z-0.4 
G3 X-0.3176 Y-1.4121 Z-0.4000 I1.0234 J-1.0234
G3 X1.4121 Y-0.3176 Z-0.4000 I0.3176 J1.4121
G3 X0.3176 Y1.4121 Z-0.4000 I-1.4121 J0.3176
G3 X-1.0234 Y1.0234 Z-0.4000 I-0.3176 J-1.4121
G0 X-1.041 Y1.041 Z-0.4 
G3 X-0.3208 Y-1.4369 Z-0.4000 I1.0410 J-1.0410
G3 X1.4369 Y-0.3208 Z-0.4000 I0.3208 J1.4369
G3 X0.3208 Y1.4369 Z-0.4000 I-1.4369 J0.3208
G3 X-1.0410 Y1.0410 Z-0.4000 I-0.3208 J-1.4369
G0 X-1.0576 Y1.0576 Z-0.4 
G1 X-1.0443 Y1.0710 Z-0.4000
G3 X-1.0710 Y1.0443 Z-0.4000 I0.0537 J-0.0804
G1 X-1.0576 Y1.0576 Z-0.4000
G0 X-0.9012 Y1.1884 Z-0.4 
G1 X-0.8162 Y1.2537 Z-0.4000
G3 X-0.9012 Y1.1884 Z-0.4000 I0.1215 J-0.2465
G0 X-0.9201 Y1.2133 Z-0.4 
G3 X0.5827 Y-1.4068 Z-0.4000 I0.9201 J-1.2133
G3 X-0.5827 Y1.4068 Z-0.4000 I-0.5827 J1.4068
G3 X-0.9201 Y1.2133 Z-0.4000 I0.5827 J-1.4068
G0 X-0.9353 Y1.2333 Z-0.4 
G3 X0.5923 Y-1.4300 Z-0.4000 I0.9353 J-1.2333
G3 X-0.5923 Y1.4300 Z-0.4000 I-0.5923 J1.4300
G3 X-0.9353 Y1.2333 Z-0.4000 I0.5923 J-1.4300
G0 X-0.996 Y1.3134 Z-0.4 
G3 X0.6308 Y-1.5228 Z-0.4000 I0.9960 J-1.3134
G3 X-0.6308 Y1.5228 Z-0.4000 I-0.6308 J1.5228
G3 X-0.9960 Y1.3134 Z-0.4000 I0.6308 J-1.5228
G0 X-1.0567 Y1.3934 Z-0.4 
G3 X0.6692 Y-1.6157 Z-0.4000 I1.0567 J-1.3934
G3 X1.6157 Y0.6692 Z-0.4000 I-0.6692 J1.6157
G3 X-0.6692 Y1.6157 Z-0.4000 I-1.6157 J-0.6692
G3 X-1.0567 Y1.3934 Z-0.4000 I0.6692 J-1.6157
G0 X-1.1174 Y1.4735 Z-0.4 
G3 X0.7077 Y-1.7085 Z-0.4000 I1.1174 J-1.4735
G3 X-0.7077 Y1.7085 Z-0.4000 I-0.7077 J1.7085
G3 X-1.1174 Y1.4735 Z-0.4000 I0.7077 J-1.7085
G0 X-1.1781 Y1.5536 Z-0.4 
G3 X0.7461 Y-1.8013 Z-0.4000 I1.1781 J-1.5536
G3 X-0.7461 Y1.8013 Z-0.4000 I-0.7461 J1.8013
G3 X-1.1781 Y1.5536 Z-0.4000 I0.7461 J-1.8013
G0 X-0.6283 Y1.3541 Z-0.4 
G1 X-0.5132 Y1.4018 Z-0.4000
G3 X-0.6283 Y1.3541 Z-0.4000 I0.0623 J-0.3132
G0 X-0.3094 Y1.4636 Z-0.4 
G1 X-0.2031 Y1.4776 Z-0.4000
G3 X-0.3094 Y1.4636 Z-0.4000 I-0.0180 J-0.2742
G0 X-0.0189 Y1.4957 Z-0.4 
G1 X0.0189 Y1.4957 Z-0.4000
G3 X-0.0189 Y1.4957 Z-0.4000 I-0.0189 J-0.0948
G0 X0.2031 Y1.4776 Z-0.4 
G1 X0.3094 Y1.4636 Z-0.4000
G3 X0.2031 Y1.4776 Z-0.4000 I-0.0883 J-0.2602
G0 X0.5132 Y1.4018 Z-0.4 
G1 X0.6283 Y1.3541 Z-0.4000
G3 X0.5132 Y1.4018 Z-0.4000 I-0.1774 J-0.2655
G0 X0.8162 Y1.2537 Z-0.4 
G1 X0.9012 Y1.1884 Z-0.4000
G3 X0.8162 Y1.2537 Z-0.4000 I-0.2066 J-0.1812
G0 X1.0443 Y1.071 Z-0.4 
G1 X1.0710 Y1.0443 Z-0.4000
G3 X1.0443 Y1.0710 Z-0.4000 I-0.0804 J-0.0537
G0 X1.1884 Y0.9012 Z-0.4 
G1 X1.2537 Y0.8162 Z-0.4000
G3 X1.1884 Y0.9012 Z-0.4000 I-0.2465 J-0.1215
G0 X1.3541 Y0.6283 Z-0.4 
G1 X1.4018 Y0.5132 Z-0.4000
G3 X1.3541 Y0.6283 Z-0.4000 I-0.3132 J-0.0623
G0 X1.4636 Y0.3094 Z-0.4 
G1 X1.4776 Y0.2031 Z-0.4000
G3 X1.4636 Y0.3094 Z-0.4000 I-0.2742 J0.0180
G0 X1.4957 Y0.0189 Z-0.4 
G1 X1.4957 Y-0.0189 Z-0.4000
G3 X1.4957 Y0.0189 Z-0.4000 I-0.0948 J0.0189
G0 X1.4776 Y-0.2031 Z-0.4 
G1 X1.4636 Y-0.3094 Z-0.4000
G3 X1.4776 Y-0.2031 Z-0.4000 I-0.2602 J0.0883
G0 X1.4018 Y-0.5132 Z-0.4 
G1 X1.3541 Y-0.6283 Z-0.4000
G3 X1.4018 Y-0.5132 Z-0.4000 I-0.2655 J0.1774
G0 X1.2537 Y-0.8162 Z-0.4 
G1 X1.1884 Y-0.9012 Z-0.4000
G3 X1.2537 Y-0.8162 Z-0.4000 I-0.1812 J0.2066
G0 X1.071 Y-1.0443 Z-0.4 
G1 X1.0443 Y-1.0710 Z-0.4000
G3 X1.0710 Y-1.0443 Z-0.4000 I-0.0537 J0.0804
G0 X0.9012 Y-1.1884 Z-0.4 
G1 X0.8162 Y-1.2537 Z-0.4000
G3 X0.9012 Y-1.1884 Z-0.4000 I-0.1215 J0.2465
G0 X0.6283 Y-1.3541 Z-0.4 
G1 X0.5132 Y-1.4018 Z-0.4000
G3 X0.6283 Y-1.3541 Z-0.4000 I-0.0623 J0.3132
G0 X0.3094 Y-1.4636 Z-0.4 
G1 X0.2031 Y-1.4776 Z-0.4000
G3 X0.3094 Y-1.4636 Z-0.4000 I0.0180 J0.2742
G0 X0.0189 Y-1.4957 Z-0.4 
G1 X-0.0189 Y-1.4957 Z-0.4000
G3 X0.0189 Y-1.4957 Z-0.4000 I0.0189 J0.0948
G0 X-0.2031 Y-1.4776 Z-0.4 
G1 X-0.3094 Y-1.4636 Z-0.4000
G3 X-0.2031 Y-1.4776 Z-0.4000 I0.0883 J0.2602
G0 X-0.5132 Y-1.4018 Z-0.4 
G1 X-0.6283 Y-1.3541 Z-0.4000
G3 X-0.5132 Y-1.4018 Z-0.4000 I0.1774 J0.2655
G0 X-0.8162 Y-1.2537 Z-0.4 
G1 X-0.9012 Y-1.1884 Z-0.4000
G3 X-0.8162 Y-1.2537 Z-0.4000 I0.2066 J0.1812
G0 X-1.0443 Y-1.071 Z-0.4 
G1 X-1.0710 Y-1.0443 Z-0.4000
G3 X-1.0443 Y-1.0710 Z-0.4000 I0.0804 J0.0537
G0 X-1.1884 Y-0.9012 Z-0.4 
G1 X-1.2537 Y-0.8162 Z-0.4000
G3 X-1.1884 Y-0.9012 Z-0.4000 I0.2465 J0.1215
G0 X-1.3541 Y-0.6283 Z-0.4 
G1 X-1.4018 Y-0.5132 Z-0.4000
G3 X-1.3541 Y-0.6283 Z-0.4000 I0.3132 J0.0623
G0 X-1.4636 Y-0.3094 Z-0.4 
G1 X-1.4776 Y-0.2031 Z-0.4000
G3 X-1.4636 Y-0.3094 Z-0.4000 I0.2742 J-0.0180
G0 X-1.4957 Y-0.0189 Z-0.4 
G1 X-1.4957 Y0.0189 Z-0.4000
G3 X-1.4957 Y-0.0189 Z-0.4000 I0.0948 J-0.0189
G0 X-1.4776 Y0.2031 Z-0.4 
G1 X-1.4636 Y0.3094 Z-0.4000
G3 X-1.4776 Y0.2031 Z-0.4000 I0.2602 J-0.0883
G0 X-1.4018 Y0.5132 Z-0.4 
G1 X-1.3541 Y0.6283 Z-0.4000
G3 X-1.4018 Y0.5132 Z-0.4000 I0.2655 J-0.1774
G0 X-1.2537 Y0.8162 Z-0.4 
G1 X-1.1884 Y0.9012 Z-0.4000
G3 X-1.2537 Y0.8162 Z-0.4000 I0.1812 J-0.2066
G0 X-0.9628 Y0.6268 Z-0.4 
G3 X-0.2784 Y-1.1146 Z-0.4000 I0.9628 J-0.6268
G3 X1.1146 Y-0.2784 Z-0.4000 I0.2784 J1.1146
G3 X0.2784 Y1.1146 Z-0.4000 I-1.1146 J0.2784
G3 X-0.9628 Y0.6268 Z-0.4000 I-0.2784 J-1.1146
G0 X-1.213 Y0.7896 Z-0.5 
G3 X-0.3176 Y-1.4121 Z-0.5000 I1.2130 J-0.7896
G3 X1.4121 Y-0.3176 Z-0.5000 I0.3176 J1.4121
G3 X0.3176 Y1.4121 Z-0.5000 I-1.4121 J0.3176
G3 X-1.2130 Y0.7896 Z-0.5000 I-0.3176 J-1.4121
G0 X-1.2338 Y0.8032 Z-0.5 
G3 X-0.3208 Y-1.4369 Z-0.5000 I1.2338 J-0.8032
G3 X1.4369 Y-0.3208 Z-0.5000 I0.3208 J1.4369
G3 X0.3208 Y1.4369 Z-0.5000 I-1.4369 J0.3208
G3 X-1.2338 Y0.8032 Z-0.5000 I-0.3208 J-1.4369
G0 X-1.2537 Y0.8162 Z-0.5 
G1 X-1.1884 Y0.9012 Z-0.5000
G3 X-1.2537 Y0.8162 Z-0.5000 I0.1812 J-0.2066
G0 X-1.3541 Y0.6283 Z-0.5 
G3 X-1.4018 Y0.5132 Z-0.5000 I0.2655 J-0.1774
G1 X-1.3541 Y0.6283 Z-0.5000
G0 X-1.4636 Y0.3094 Z-0.5 
G3 X-1.4776 Y0.2031 Z-0.5000 I0.2602 J-0.0883
G1 X-1.4636 Y0.3094 Z-0.5000
G0 X-1.4898 Y0.3149 Z-0.5 
G3 X0.5827 Y-1.4068 Z-0.5000 I1.4898 J-0.3149
G3 X-0.5827 Y1.4068 Z-0.5000 I-0.5827 J1.4068
G3 X-1.4898 Y0.3149 Z-0.5000 I0.5827 J-1.4068
G0 X-1.5144 Y0.3201 Z-0.5 
G3 X0.5923 Y-1.4300 Z-0.5000 I1.5144 J-0.3201
G3 X-0.5923 Y1.4300 Z-0.5000 I-0.5923 J1.4300
G3 X-1.5144 Y0.3201 Z-0.5000 I0.5923 J-1.4300
G0 X-1.4957 Y0.0189 Z-0.5 
G3 X-1.4957 Y-0.0189 Z-0.5000 I0.0948 J-0.0189
G1 X-1.4957 Y0.0189 Z-0.5000
G0 X-1.6482 Y0.0208 Z-0.5 
G3 X0.6308 Y-1.5228 Z-0.5000 I1.6482 J-0.0208
G3 X-0.6308 Y1.5228 Z-0.5000 I-0.6308 J1.5228
G3 X-1.6482 Y0.0208 Z-0.5000 I0.6308 J-1.5228
G0 X-1.7487 Y0.0221 Z-0.5 
G3 X0.6692 Y-1.6157 Z-0.5000 I1.7487 J-0.0221
G3 X1.6157 Y0.6692 Z-0.5000 I-0.6692 J1.6157
G3 X-0.6692 Y1.6157 Z-0.5000 I-1.6157 J-0.6692
G3 X-1.7487 Y0.0221 Z-0.5000 I0.6692 J-1.6157
G0 X-1.4776 Y-0.2031 Z-0.5 
G3 X-1.4636 Y-0.3094 Z-0.5000 I0.2742 J-0.0180
G1 X-1.4776 Y-0.2031 Z-0.5000
G0 X-1.4018 Y-0.5132 Z-0.5 
G3 X-1.3541 Y-0.6283 Z-0.5000 I0.3132 J0.0623
G1 X-1.4018 Y-0.5132 Z-0.5000
G0 X-1.2537 Y-0.8162 Z-0.5 
G3 X-1.1884 Y-0.9012 Z-0.5000 I0.2465 J0.1215
G1 X-1.2537 Y-0.8162 Z-0.5000
G0 X-1.071 Y-1.0443 Z-0.5 
G3 X-1.0443 Y-1.0710 Z-0.5000 I0.0804 J0.0537
G1 X-1.0710 Y-1.0443 Z-0.5000
G0 X-0.9012 Y-1.1884 Z-0.5 
G3 X-0.8162 Y-1.2537 Z-0.5000 I0.2066 J0.1812
G1 X-0.9012 Y-1.1884 Z-0.5000
G0 X-0.8144 Y-1.0739 Z-0.5 
G3 X-0.3045 Y-1.3129 Z-0.5000 I0.8144 J1.0739
G3 X1.3129 Y-0.3045 Z-0.5000 I0.3045 J1.3129
G3 X0.3045 Y1.3129 Z-0.5000 I-1.3129 J0.3045
G3 X-0.8144 Y-1.0739 Z-0.5000 I-0.3045 J-1.3129
G0 X-0.6942 Y-0.9154 Z-0.5 
G3 X-0.2784 Y-1.1146 Z-0.5000 I0.6942 J0.9154
G3 X1.1146 Y-0.2784 Z-0.5000 I0.2784 J1.1146
G3 X0.2784 Y1.1146 Z-0.5000 I-1.1146 J0.2784
G3 X-0.6942 Y-0.9154 Z-0.5000 I-0.2784 J-1.1146
G0 X-0.6342 Y-0.8363 Z-0.5 
G3 X-0.2653 Y-1.0155 Z-0.5000 I0.6342 J0.8363
G3 X0.2653 Y1.0155 Z-0.5000 I0.2653 J1.0155
G3 X-0.6342 Y-0.8363 Z-0.5000 I-0.2653 J-1.0155
G0 X-0.7543 Y-0.9946 Z-0.5 
G3 X-0.2915 Y-1.2138 Z-0.5000 I0.7543 J0.9946
G3 X1.2138 Y-0.2915 Z-0.5000 I0.2915 J1.2138
G3 X0.2915 Y1.2138 Z-0.5000 I-1.2138 J0.2915
G3 X-0.7543 Y-0.9946 Z-0.5000 I-0.2915 J-1.2138
G0 X-0.6283 Y-1.3541 Z-0.5 
G3 X-0.5132 Y-1.4018 Z-0.5000 I0.1774 J0.2655
G1 X-0.6283 Y-1.3541 Z-0.5000
G0 X-0.3094 Y-1.4636 Z-0.5 
G3 X-0.2031 Y-1.4776 Z-0.5000 I0.0883 J0.2602
G1 X-0.3094 Y-1.4636 Z-0.5000
G0 X-0.0189 Y-1.4957 Z-0.5 
G3 X0.0189 Y-1.4957 Z-0.5000 I0.0189 J0.0948
G1 X-0.0189 Y-1.4957 Z-0.5000
G0 X0.2031 Y-1.4776 Z-0.5 
G3 X0.3094 Y-1.4636 Z-0.5000 I0.0180 J0.2742
G1 X0.2031 Y-1.4776 Z-0.5000
G0 X0.5132 Y-1.4018 Z-0.5 
G3 X0.6283 Y-1.3541 Z-0.5000 I-0.0623 J0.3132
G1 X0.5132 Y-1.4018 Z-0.5000
G0 X0.8162 Y-1.2537 Z-0.5 
G3 X0.9012 Y-1.1884 Z-0.5000 I-0.1215 J0.2465
G1 X0.8162 Y-1.2537 Z-0.5000
G0 X1.0443 Y-1.071 Z-0.5 
G3 X1.0710 Y-1.0443 Z-0.5000 I-0.0537 J0.0804
G1 X1.0443 Y-1.0710 Z-0.5000
G0 X1.1884 Y-0.9012 Z-0.5 
G3 X1.2537 Y-0.8162 Z-0.5000 I-0.1812 J0.2066
G1 X1.1884 Y-0.9012 Z-0.5000
G0 X1.3541 Y-0.6283 Z-0.5 
G3 X1.4018 Y-0.5132 Z-0.5000 I-0.2655 J0.1774
G1 X1.3541 Y-0.6283 Z-0.5000
G0 X1.4636 Y-0.3094 Z-0.5 
G3 X1.4776 Y-0.2031 Z-0.5000 I-0.2602 J0.0883
G1 X1.4636 Y-0.3094 Z-0.5000
G0 X1.4957 Y-0.0189 Z-0.5 
G3 X1.4957 Y0.0189 Z-0.5000 I-0.0948 J0.0189
G1 X1.4957 Y-0.0189 Z-0.5000
G0 X1.4776 Y0.2031 Z-0.5 
G3 X1.4636 Y0.3094 Z-0.5000 I-0.2742 J0.0180
G1 X1.4776 Y0.2031 Z-0.5000
G0 X1.4018 Y0.5132 Z-0.5 
G3 X1.3541 Y0.6283 Z-0.5000 I-0.3132 J-0.0623
G1 X1.4018 Y0.5132 Z-0.5000
G0 X1.2537 Y0.8162 Z-0.5 
G3 X1.1884 Y0.9012 Z-0.5000 I-0.2465 J-0.1215
G1 X1.2537 Y0.8162 Z-0.5000
G0 X1.071 Y1.0443 Z-0.5 
G3 X1.0443 Y1.0710 Z-0.5000 I-0.0804 J-0.0537
G1 X1.0710 Y1.0443 Z-0.5000
G0 X0.9012 Y1.1884 Z-0.5 
G3 X0.8162 Y1.2537 Z-0.5000 I-0.2066 J-0.1812
G1 X0.9012 Y1.1884 Z-0.5000
G0 X0.6283 Y1.3541 Z-0.5 
G3 X0.5132 Y1.4018 Z-0.5000 I-0.1774 J-0.2655
G1 X0.6283 Y1.3541 Z-0.5000
G0 X0.3094 Y1.4636 Z-0.5 
G3 X0.2031 Y1.4776 Z-0.5000 I-0.0883 J-0.2602
G1 X0.3094 Y1.4636 Z-0.5000
G0 X0.0189 Y1.4957 Z-0.5 
G3 X-0.0189 Y1.4957 Z-0.5000 I-0.0189 J-0.0948
G1 X0.0189 Y1.4957 Z-0.5000
G0 X-0.2031 Y1.4776 Z-0.5 
G3 X-0.3094 Y1.4636 Z-0.5000 I-0.0180 J-0.2742
G1 X-0.2031 Y1.4776 Z-0.5000
G0 X-0.5132 Y1.4018 Z-0.5 
G3 X-0.6283 Y1.3541 Z-0.5000 I0.0623 J-0.3132
G1 X-0.5132 Y1.4018 Z-0.5000
G0 X-0.8162 Y1.2537 Z-0.5 
G3 X-0.9012 Y1.1884 Z-0.5000 I0.1215 J-0.2465
G1 X-0.8162 Y1.2537 Z-0.5000
G0 X-1.0443 Y1.071 Z-0.5 
G3 X-1.0710 Y1.0443 Z-0.5000 I0.0537 J-0.0804
G1 X-1.0443 Y1.0710 Z-0.5000
G0 X-1.291 Y1.324 Z-0.5 
G3 X0.7077 Y-1.7085 Z-0.5000 I1.2910 J-1.3240
G3 X-0.7077 Y1.7085 Z-0.5000 I-0.7077 J1.7085
G3 X-1.2910 Y1.3240 Z-0.5000 I0.7077 J-1.7085
G0 X-1.3612 Y1.396 Z-0.5 
G3 X0.7461 Y-1.8013 Z-0.5000 I1.3612 J-1.3960
G3 X-0.7461 Y1.8013 Z-0.5000 I-0.7461 J1.8013
G3 X-1.3612 Y1.3960 Z-0.5000 I0.7461 J-1.8013
G0 Z5 
;end operation: Pocket3D005
;begin postamble
M5
M25
G49 H0
G90 G80 G40 G49
M99
