(Exported by FreeCAD)
(Post Processor: KineticNCBeamicon2_post)
(Output Time:2026-06-14 10:46:02.828125)
(begin preamble)
%
G17 G21 G40 G49 G80 G90
M08
G21
(begin operation: Fixture)
(machine: not set, mm/min)
G54
(finish operation: Fixture)
(begin operation: TC: Test Tool001)
(machine: not set, mm/min)
(TC: Test Tool001)
M05
M09
M6 T1
(finish operation: TC: Test Tool001)
(begin operation: Pocket3D)
(machine: not set, mm/min)
(Pocket3D)
F1500
G0 Z0.100
G0 X0.565 Y0.565 Z0.000
G0 Z0.100
G1 X0.565 Y0.565 Z-0.100
G3 X-0.180 Y0.778 Z-0.100 I-0.565 J-0.565
G3 X0.180 Y-0.778 Z-0.100 I0.180 J-0.778
G3 X0.565 Y0.565 Z-0.100 I-0.180 J0.778
G0 Z0.000
G0 X0.352 Y0.352 Z0.000
G0 X0.352 Y0.352 Z0.100
G1 X0.352 Y0.352 Z-0.100
G3 X-0.112 Y0.485 Z-0.100 I-0.352 J-0.352
G3 X0.112 Y-0.485 Z-0.100 I0.112 J-0.485
G3 X0.352 Y0.352 Z-0.100 I-0.112 J0.485
G0 Z0.000
G0 X0.281 Y0.281 Z0.000
G0 X0.281 Y0.281 Z0.100
G1 X0.281 Y0.281 Z-0.100
G3 X-0.090 Y0.388 Z-0.100 I-0.281 J-0.281
G3 X0.090 Y-0.388 Z-0.100 I0.090 J-0.388
G3 X0.281 Y0.281 Z-0.100 I-0.090 J0.388
G0 Z0.000
G0 X0.210 Y0.210 Z0.000
G0 X0.210 Y0.210 Z0.100
G1 X0.210 Y0.210 Z-0.100
G3 X-0.067 Y0.290 Z-0.100 I-0.210 J-0.210
G3 X0.067 Y-0.290 Z-0.100 I0.067 J-0.290
G3 X0.210 Y0.210 Z-0.100 I-0.067 J0.290
G0 Z0.000
G0 X0.140 Y0.140 Z0.000
G0 X0.140 Y0.140 Z0.100
G1 X0.140 Y0.140 Z-0.100
G3 X-0.044 Y0.192 Z-0.100 I-0.140 J-0.140
G3 X0.044 Y-0.192 Z-0.100 I0.045 J-0.192
G3 X0.140 Y0.140 Z-0.100 I-0.045 J0.192
G0 Z0.000
G0 X0.069 Y0.069 Z0.000
G0 X0.069 Y0.069 Z0.100
G1 X0.069 Y0.069 Z-0.100
G3 X-0.022 Y0.095 Z-0.100 I-0.069 J-0.069
G3 X0.022 Y-0.095 Z-0.100 I0.022 J-0.095
G3 X0.069 Y0.069 Z-0.100 I-0.022 J0.095
G1 X0.051 Y0.051 Z-0.100
G3 X-0.016 Y0.070 Z-0.100 I-0.051 J-0.051
G3 X0.016 Y-0.070 Z-0.100 I0.016 J-0.070
G3 X0.051 Y0.051 Z-0.100 I-0.016 J0.070
G1 X0.033 Y0.033 Z-0.100
G3 X-0.011 Y0.046 Z-0.100 I-0.033 J-0.033
G3 X0.011 Y-0.046 Z-0.100 I0.011 J-0.046
G3 X0.033 Y0.033 Z-0.100 I-0.011 J0.046
G1 X0.016 Y0.016 Z-0.100
G3 X-0.005 Y0.022 Z-0.100 I-0.016 J-0.016
G3 X0.005 Y-0.022 Z-0.100 I0.005 J-0.022
G3 X0.016 Y0.016 Z-0.100 I-0.005 J0.022
G0 Z0.000
G0 X0.423 Y0.423 Z0.000
G0 X0.423 Y0.423 Z0.100
G1 X0.423 Y0.423 Z-0.100
G3 X-0.135 Y0.583 Z-0.100 I-0.423 J-0.423
G3 X0.135 Y-0.583 Z-0.100 I0.135 J-0.583
G3 X0.423 Y0.423 Z-0.100 I-0.135 J0.583
G0 Z0.000
G0 X0.494 Y0.494 Z0.000
G0 X0.494 Y0.494 Z0.100
G1 X0.494 Y0.494 Z-0.100
G3 X-0.157 Y0.680 Z-0.100 I-0.494 J-0.494
G3 X0.157 Y-0.680 Z-0.100 I0.157 J-0.680
G3 X0.494 Y0.494 Z-0.100 I-0.157 J0.680
G0 Z0.000
G0 X0.635 Y0.636 Z0.000
G0 X0.635 Y0.636 Z0.100
G1 X0.635 Y0.636 Z-0.100
G3 X-0.203 Y0.876 Z-0.100 I-0.636 J-0.636
G3 X0.203 Y-0.876 Z-0.100 I0.203 J-0.876
G3 X0.635 Y0.636 Z-0.100 I-0.203 J0.876
G0 Z0.000
G0 X0.388 Y0.388 Z0.000
G0 X0.388 Y0.388 Z0.100
G1 X0.388 Y0.388 Z-0.200
G3 X-0.124 Y0.534 Z-0.200 I-0.388 J-0.388
G3 X0.124 Y-0.534 Z-0.200 I0.124 J-0.534
G3 X0.388 Y0.388 Z-0.200 I-0.124 J0.534
G0 Z0.000
G0 X0.246 Y0.246 Z0.000
G0 X0.246 Y0.246 Z0.100
G1 X0.246 Y0.246 Z-0.200
G3 X-0.078 Y0.339 Z-0.200 I-0.246 J-0.246
G3 X0.078 Y-0.339 Z-0.200 I0.079 J-0.339
G3 X0.246 Y0.246 Z-0.200 I-0.079 J0.339
G0 Z0.000
G0 X0.175 Y0.175 Z0.000
G0 X0.175 Y0.175 Z0.100
G1 X0.175 Y0.175 Z-0.200
G3 X-0.056 Y0.241 Z-0.200 I-0.175 J-0.175
G3 X0.056 Y-0.241 Z-0.200 I0.056 J-0.241
G3 X0.175 Y0.175 Z-0.200 I-0.056 J0.241
G0 Z0.000
G0 X0.104 Y0.104 Z0.000
G0 X0.104 Y0.104 Z0.100
G1 X0.104 Y0.104 Z-0.200
G3 X-0.033 Y0.144 Z-0.200 I-0.104 J-0.104
G3 X0.033 Y-0.144 Z-0.200 I0.033 J-0.144
G3 X0.104 Y0.104 Z-0.200 I-0.033 J0.144
G0 Z0.000
G0 X0.033 Y0.033 Z0.000
G0 X0.033 Y0.033 Z0.100
G1 X0.033 Y0.033 Z-0.200
G3 X-0.011 Y0.046 Z-0.200 I-0.033 J-0.033
G3 X0.011 Y-0.046 Z-0.200 I0.011 J-0.046
G3 X0.033 Y0.033 Z-0.200 I-0.011 J0.046
G1 X0.016 Y0.016 Z-0.200
G3 X-0.005 Y0.022 Z-0.200 I-0.016 J-0.016
G3 X0.005 Y-0.022 Z-0.200 I0.005 J-0.022
G3 X0.016 Y0.016 Z-0.200 I-0.005 J0.022
G0 Z0.000
G0 X0.317 Y0.317 Z0.000
G0 X0.317 Y0.317 Z0.100
G1 X0.317 Y0.317 Z-0.200
G3 X-0.101 Y0.436 Z-0.200 I-0.317 J-0.317
G3 X0.101 Y-0.436 Z-0.200 I0.101 J-0.436
G3 X0.317 Y0.317 Z-0.200 I-0.101 J0.436
G0 Z0.000
G0 X0.458 Y0.458 Z0.000
G0 X0.458 Y0.458 Z0.100
G1 X0.458 Y0.458 Z-0.200
G3 X-0.146 Y0.632 Z-0.200 I-0.458 J-0.458
G3 X0.146 Y-0.632 Z-0.200 I0.146 J-0.632
G3 X0.458 Y0.458 Z-0.200 I-0.146 J0.632
G0 Z0.000
G0 X0.529 Y0.529 Z0.000
G0 X0.529 Y0.529 Z0.100
G1 X0.529 Y0.529 Z-0.200
G3 X-0.169 Y0.729 Z-0.200 I-0.529 J-0.529
G3 X0.169 Y-0.729 Z-0.200 I0.169 J-0.729
G3 X0.529 Y0.529 Z-0.200 I-0.169 J0.729
G0 Z0.000
G0 X0.600 Y0.600 Z0.000
G0 X0.600 Y0.600 Z0.100
G1 X0.600 Y0.600 Z-0.200
G3 X-0.192 Y0.827 Z-0.200 I-0.600 J-0.600
G3 X0.192 Y-0.827 Z-0.200 I0.192 J-0.827
G3 X0.600 Y0.600 Z-0.200 I-0.192 J0.827
G0 Z0.000
G0 X0.423 Y0.423 Z0.000
G0 X0.423 Y0.423 Z0.100
G1 X0.423 Y0.423 Z-0.300
G3 X-0.134 Y0.583 Z-0.300 I-0.423 J-0.423
G3 X-0.583 Y-0.134 Z-0.300 I0.134 J-0.583
G3 X0.134 Y-0.583 Z-0.300 I0.583 J0.134
G3 X0.423 Y0.423 Z-0.300 I-0.134 J0.583
G0 Z0.000
G0 X0.281 Y0.281 Z0.000
G0 X0.281 Y0.281 Z0.100
G1 X0.281 Y0.281 Z-0.300
G3 X-0.089 Y0.388 Z-0.300 I-0.281 J-0.281
G3 X-0.388 Y-0.089 Z-0.300 I0.089 J-0.388
G3 X0.089 Y-0.388 Z-0.300 I0.388 J0.089
G3 X0.281 Y0.281 Z-0.300 I-0.089 J0.388
G0 Z0.000
G0 X0.211 Y0.211 Z0.000
G0 X0.211 Y0.211 Z0.100
G1 X0.211 Y0.211 Z-0.300
G3 X-0.067 Y0.290 Z-0.300 I-0.210 J-0.210
G3 X-0.290 Y-0.067 Z-0.300 I0.067 J-0.290
G3 X0.067 Y-0.290 Z-0.300 I0.290 J0.067
G3 X0.211 Y0.211 Z-0.300 I-0.067 J0.290
G0 Z0.000
G0 X0.140 Y0.140 Z0.000
G0 X0.140 Y0.140 Z0.100
G1 X0.140 Y0.140 Z-0.300
G3 X-0.044 Y0.192 Z-0.300 I-0.140 J-0.140
G3 X-0.192 Y-0.044 Z-0.300 I0.044 J-0.192
G3 X0.044 Y-0.192 Z-0.300 I0.192 J0.044
G3 X0.140 Y0.140 Z-0.300 I-0.044 J0.192
G0 Z0.000
G0 X0.069 Y0.069 Z0.000
G0 X0.069 Y0.069 Z0.100
G1 X0.069 Y0.069 Z-0.300
G3 X-0.022 Y0.095 Z-0.300 I-0.069 J-0.069
G3 X-0.095 Y-0.022 Z-0.300 I0.022 J-0.095
G3 X0.022 Y-0.095 Z-0.300 I0.095 J0.022
G3 X0.069 Y0.069 Z-0.300 I-0.022 J0.095
G1 X0.051 Y0.051 Z-0.300
G3 X-0.016 Y0.070 Z-0.300 I-0.051 J-0.051
G3 X-0.070 Y-0.016 Z-0.300 I0.016 J-0.070
G3 X0.016 Y-0.070 Z-0.300 I0.070 J0.016
G3 X0.051 Y0.051 Z-0.300 I-0.016 J0.070
G1 X0.033 Y0.033 Z-0.300
G3 X-0.011 Y0.046 Z-0.300 I-0.033 J-0.033
G3 X-0.046 Y-0.011 Z-0.300 I0.011 J-0.046
G3 X0.011 Y-0.046 Z-0.300 I0.046 J0.011
G3 X0.033 Y0.033 Z-0.300 I-0.011 J0.046
G1 X0.016 Y0.016 Z-0.300
G3 X-0.005 Y0.022 Z-0.300 I-0.016 J-0.016
G3 X-0.022 Y-0.005 Z-0.300 I0.005 J-0.022
G3 X0.005 Y-0.022 Z-0.300 I0.022 J0.005
G3 X0.016 Y0.016 Z-0.300 I-0.005 J0.022
G0 Z0.000
G0 X0.352 Y0.352 Z0.000
G0 X0.352 Y0.352 Z0.100
G1 X0.352 Y0.352 Z-0.300
G3 X-0.112 Y0.485 Z-0.300 I-0.352 J-0.352
G3 X-0.485 Y-0.112 Z-0.300 I0.112 J-0.485
G3 X0.112 Y-0.485 Z-0.300 I0.485 J0.112
G3 X0.352 Y0.352 Z-0.300 I-0.112 J0.485
G0 Z0.000
G0 X0.494 Y0.494 Z0.000
G0 X0.494 Y0.494 Z0.100
G1 X0.494 Y0.494 Z-0.300
G3 X-0.156 Y0.681 Z-0.300 I-0.494 J-0.494
G3 X-0.681 Y-0.156 Z-0.300 I0.156 J-0.681
G3 X0.156 Y-0.681 Z-0.300 I0.681 J0.156
G3 X0.494 Y0.494 Z-0.300 I-0.156 J0.681
G0 Z0.000
G0 X0.565 Y0.565 Z0.000
G0 X0.565 Y0.565 Z0.100
G1 X0.565 Y0.565 Z-0.300
G3 X-0.179 Y0.778 Z-0.300 I-0.565 J-0.565
G3 X-0.778 Y-0.179 Z-0.300 I0.179 J-0.778
G3 X0.179 Y-0.778 Z-0.300 I0.778 J0.179
G3 X0.565 Y0.565 Z-0.300 I-0.179 J0.778
G0 Z0.000
G0 X0.317 Y0.317 Z0.000
G0 X0.317 Y0.317 Z0.100
G1 X0.317 Y0.317 Z-0.400
G3 X-0.120 Y0.432 Z-0.400 I-0.317 J-0.317
G3 X-0.431 Y-0.120 Z-0.400 I0.120 J-0.431
G3 X0.120 Y-0.431 Z-0.400 I0.431 J0.120
G3 X0.317 Y0.317 Z-0.400 I-0.120 J0.431
G0 Z0.000
G0 X0.246 Y0.246 Z0.000
G0 X0.246 Y0.246 Z0.100
G1 X0.246 Y0.246 Z-0.400
G3 X-0.093 Y0.335 Z-0.400 I-0.246 J-0.246
G3 X-0.335 Y-0.093 Z-0.400 I0.093 J-0.335
G3 X0.093 Y-0.335 Z-0.400 I0.335 J0.093
G3 X0.246 Y0.246 Z-0.400 I-0.093 J0.335
G0 Z0.000
G0 X0.175 Y0.175 Z0.000
G0 X0.175 Y0.175 Z0.100
G1 X0.175 Y0.175 Z-0.400
G3 X-0.066 Y0.238 Z-0.400 I-0.175 J-0.175
G3 X-0.238 Y-0.066 Z-0.400 I0.066 J-0.238
G3 X0.066 Y-0.238 Z-0.400 I0.238 J0.066
G3 X0.175 Y0.175 Z-0.400 I-0.066 J0.238
G0 Z0.000
G0 X0.104 Y0.104 Z0.000
G0 X0.104 Y0.104 Z0.100
G1 X0.104 Y0.104 Z-0.400
G3 X-0.039 Y0.142 Z-0.400 I-0.104 J-0.104
G3 X0.039 Y-0.142 Z-0.400 I0.039 J-0.142
G3 X0.104 Y0.104 Z-0.400 I-0.039 J0.142
G0 Z0.000
G0 X0.033 Y0.033 Z0.000
G0 X0.033 Y0.033 Z0.100
G1 X0.033 Y0.033 Z-0.400
G3 X-0.013 Y0.045 Z-0.400 I-0.033 J-0.033
G3 X-0.045 Y-0.013 Z-0.400 I0.013 J-0.045
G3 X0.013 Y-0.045 Z-0.400 I0.045 J0.013
G3 X0.033 Y0.033 Z-0.400 I-0.013 J0.045
G1 X0.016 Y0.016 Z-0.400
G3 X-0.006 Y0.021 Z-0.400 I-0.016 J-0.016
G3 X-0.021 Y-0.006 Z-0.400 I0.006 J-0.021
G3 X0.006 Y-0.021 Z-0.400 I0.021 J0.006
G3 X0.016 Y0.016 Z-0.400 I-0.006 J0.021
G0 Z0.000
G0 X0.388 Y0.388 Z0.000
G0 X0.388 Y0.388 Z0.100
G1 X0.388 Y0.388 Z-0.400
G3 X-0.147 Y0.528 Z-0.400 I-0.388 J-0.388
G3 X-0.528 Y-0.147 Z-0.400 I0.147 J-0.528
G3 X0.147 Y-0.528 Z-0.400 I0.528 J0.147
G3 X0.388 Y0.388 Z-0.400 I-0.147 J0.528
G0 Z0.000
G0 X0.458 Y0.458 Z0.000
G0 X0.458 Y0.458 Z0.100
G1 X0.458 Y0.458 Z-0.400
G3 X-0.174 Y0.625 Z-0.400 I-0.458 J-0.458
G3 X-0.625 Y-0.174 Z-0.400 I0.174 J-0.625
G3 X0.174 Y-0.624 Z-0.400 I0.625 J0.174
G3 X0.458 Y0.458 Z-0.400 I-0.174 J0.625
G0 Z0.000
G0 X0.529 Y0.529 Z0.000
G0 X0.529 Y0.529 Z0.100
G1 X0.529 Y0.529 Z-0.400
G3 X-0.201 Y0.721 Z-0.400 I-0.529 J-0.529
G3 X-0.721 Y-0.201 Z-0.400 I0.201 J-0.721
G3 X0.201 Y-0.721 Z-0.400 I0.721 J0.201
G3 X0.529 Y0.529 Z-0.400 I-0.201 J0.721
G0 Z0.000
G0 X0.352 Y0.352 Z0.000
G0 X0.352 Y0.352 Z0.100
G1 X0.352 Y0.352 Z-0.500
G3 X-0.139 Y0.478 Z-0.500 I-0.352 J-0.352
G3 X0.139 Y-0.478 Z-0.500 I0.139 J-0.478
G3 X0.352 Y0.352 Z-0.500 I-0.139 J0.478
G0 Z0.000
G0 X0.210 Y0.210 Z0.000
G0 X0.210 Y0.210 Z0.100
G1 X0.210 Y0.210 Z-0.500
G3 X-0.083 Y0.286 Z-0.500 I-0.210 J-0.210
G3 X-0.286 Y-0.083 Z-0.500 I0.083 J-0.286
G3 X0.083 Y-0.286 Z-0.500 I0.286 J0.083
G3 X0.210 Y0.210 Z-0.500 I-0.083 J0.286
G0 Z0.000
G0 X0.140 Y0.140 Z0.000
G0 X0.140 Y0.140 Z0.100
G1 X0.140 Y0.140 Z-0.500
G3 X-0.055 Y0.189 Z-0.500 I-0.140 J-0.140
G3 X-0.189 Y-0.055 Z-0.500 I0.055 J-0.189
G3 X0.055 Y-0.189 Z-0.500 I0.189 J0.055
G3 X0.140 Y0.140 Z-0.500 I-0.055 J0.189
G0 Z0.000
G0 X0.069 Y0.069 Z0.000
G0 X0.069 Y0.069 Z0.100
G1 X0.069 Y0.069 Z-0.500
G3 X-0.027 Y0.093 Z-0.500 I-0.069 J-0.069
G3 X0.027 Y-0.093 Z-0.500 I0.027 J-0.093
G3 X0.069 Y0.069 Z-0.500 I-0.027 J0.093
G1 X0.051 Y0.051 Z-0.500
G3 X-0.020 Y0.069 Z-0.500 I-0.051 J-0.051
G3 X-0.069 Y-0.020 Z-0.500 I0.020 J-0.069
G3 X0.020 Y-0.069 Z-0.500 I0.069 J0.020
G3 X0.051 Y0.051 Z-0.500 I-0.020 J0.069
G1 X0.033 Y0.033 Z-0.500
G3 X-0.013 Y0.045 Z-0.500 I-0.033 J-0.033
G3 X-0.045 Y-0.013 Z-0.500 I0.013 J-0.045
G3 X0.013 Y-0.045 Z-0.500 I0.045 J0.013
G3 X0.033 Y0.033 Z-0.500 I-0.013 J0.045
G1 X0.016 Y0.016 Z-0.500
G3 X-0.006 Y0.021 Z-0.500 I-0.016 J-0.016
G3 X0.006 Y-0.021 Z-0.500 I0.006 J-0.021
G3 X0.016 Y0.016 Z-0.500 I-0.006 J0.021
G0 Z0.000
G0 X0.281 Y0.281 Z0.000
G0 X0.281 Y0.281 Z0.100
G1 X0.281 Y0.281 Z-0.500
G3 X-0.111 Y0.382 Z-0.500 I-0.281 J-0.281
G3 X0.111 Y-0.382 Z-0.500 I0.111 J-0.382
G3 X0.281 Y0.281 Z-0.500 I-0.111 J0.382
G0 Z0.000
G0 X0.423 Y0.423 Z0.000
G0 X0.423 Y0.423 Z0.100
G1 X0.423 Y0.423 Z-0.500
G3 X-0.167 Y0.574 Z-0.500 I-0.423 J-0.423
G3 X0.167 Y-0.574 Z-0.500 I0.167 J-0.574
G3 X0.423 Y0.423 Z-0.500 I-0.167 J0.574
G0 Z0.000
G0 X0.494 Y0.494 Z0.000
G0 X0.494 Y0.494 Z0.100
G1 X0.494 Y0.494 Z-0.500
G3 X-0.195 Y0.671 Z-0.500 I-0.494 J-0.494
G3 X0.195 Y-0.671 Z-0.500 I0.195 J-0.671
G3 X0.494 Y0.494 Z-0.500 I-0.195 J0.671
G0 Z0.000
G0 X0.317 Y0.317 Z0.000
G0 X0.317 Y0.317 Z0.100
G1 X0.317 Y0.317 Z-0.600
G3 X-0.111 Y0.434 Z-0.600 I-0.317 J-0.317
G3 X-0.434 Y-0.111 Z-0.600 I0.111 J-0.434
G3 X0.111 Y-0.434 Z-0.600 I0.434 J0.111
G3 X0.317 Y0.317 Z-0.600 I-0.111 J0.434
G0 Z0.000
G0 X0.246 Y0.246 Z0.000
G0 X0.246 Y0.246 Z0.100
G1 X0.246 Y0.246 Z-0.600
G3 X-0.086 Y0.337 Z-0.600 I-0.246 J-0.246
G3 X0.086 Y-0.337 Z-0.600 I0.086 J-0.337
G3 X0.246 Y0.246 Z-0.600 I-0.086 J0.337
G0 Z0.000
G0 X0.175 Y0.175 Z0.000
G0 X0.175 Y0.175 Z0.100
G1 X0.175 Y0.175 Z-0.600
G3 X-0.061 Y0.240 Z-0.600 I-0.175 J-0.175
G3 X-0.240 Y-0.061 Z-0.600 I0.061 J-0.240
G3 X0.061 Y-0.240 Z-0.600 I0.240 J0.061
G3 X0.175 Y0.175 Z-0.600 I-0.061 J0.240
G0 Z0.000
G0 X0.104 Y0.104 Z0.000
G0 X0.104 Y0.104 Z0.100
G1 X0.104 Y0.104 Z-0.600
G3 X-0.037 Y0.143 Z-0.600 I-0.104 J-0.104
G3 X0.037 Y-0.143 Z-0.600 I0.037 J-0.143
G3 X0.104 Y0.104 Z-0.600 I-0.037 J0.143
G0 Z0.000
G0 X0.033 Y0.033 Z0.000
G0 X0.033 Y0.033 Z0.100
G1 X0.033 Y0.033 Z-0.600
G3 X-0.012 Y0.045 Z-0.600 I-0.033 J-0.033
G3 X-0.045 Y-0.012 Z-0.600 I0.012 J-0.045
G3 X0.012 Y-0.045 Z-0.600 I0.045 J0.012
G3 X0.033 Y0.033 Z-0.600 I-0.012 J0.045
G1 X0.015 Y0.015 Z-0.600
G3 X-0.005 Y0.021 Z-0.600 I-0.015 J-0.015
G3 X-0.021 Y-0.005 Z-0.600 I0.005 J-0.021
G3 X0.005 Y-0.021 Z-0.600 I0.021 J0.005
G3 X0.015 Y0.015 Z-0.600 I-0.005 J0.021
G0 Z0.000
G0 X0.388 Y0.388 Z0.000
G0 X0.388 Y0.388 Z0.100
G1 X0.388 Y0.388 Z-0.600
G3 X-0.136 Y0.531 Z-0.600 I-0.388 J-0.388
G3 X-0.531 Y-0.136 Z-0.600 I0.136 J-0.531
G3 X0.136 Y-0.531 Z-0.600 I0.531 J0.136
G3 X0.388 Y0.388 Z-0.600 I-0.136 J0.531
G0 Z0.000
G0 X0.458 Y0.458 Z0.000
G0 X0.458 Y0.458 Z0.100
G1 X0.458 Y0.458 Z-0.600
G3 X-0.161 Y0.628 Z-0.600 I-0.458 J-0.458
G3 X-0.628 Y-0.161 Z-0.600 I0.161 J-0.628
G3 X0.161 Y-0.628 Z-0.600 I0.628 J0.161
G3 X0.458 Y0.458 Z-0.600 I-0.161 J0.628
G0 Z0.000
G0 X0.281 Y0.281 Z0.000
G0 X0.281 Y0.281 Z0.100
G1 X0.281 Y0.281 Z-0.700
G3 X-0.119 Y0.380 Z-0.700 I-0.281 J-0.281
G3 X0.119 Y-0.380 Z-0.700 I0.119 J-0.380
G3 X0.281 Y0.281 Z-0.700 I-0.119 J0.380
G0 Z0.000
G0 X0.140 Y0.139 Z0.000
G0 X0.140 Y0.139 Z0.100
G1 X0.140 Y0.139 Z-0.700
G3 X-0.059 Y0.188 Z-0.700 I-0.139 J-0.139
G3 X-0.188 Y-0.059 Z-0.700 I0.059 J-0.188
G3 X0.059 Y-0.188 Z-0.700 I0.188 J0.059
G3 X0.140 Y0.139 Z-0.700 I-0.059 J0.188
G0 Z0.000
G0 X0.069 Y0.069 Z0.000
G0 X0.069 Y0.069 Z0.100
G1 X0.069 Y0.069 Z-0.700
G3 X-0.029 Y0.093 Z-0.700 I-0.069 J-0.069
G3 X-0.093 Y-0.029 Z-0.700 I0.029 J-0.093
G3 X0.029 Y-0.093 Z-0.700 I0.093 J0.029
G3 X0.069 Y0.069 Z-0.700 I-0.029 J0.093
G1 X0.051 Y0.051 Z-0.700
G3 X-0.021 Y0.069 Z-0.700 I-0.051 J-0.051
G3 X-0.069 Y-0.022 Z-0.700 I0.022 J-0.069
G3 X0.022 Y-0.069 Z-0.700 I0.069 J0.022
G3 X0.051 Y0.051 Z-0.700 I-0.022 J0.069
G1 X0.033 Y0.033 Z-0.700
G3 X-0.014 Y0.045 Z-0.700 I-0.033 J-0.033
G3 X-0.045 Y-0.014 Z-0.700 I0.014 J-0.045
G3 X0.014 Y-0.045 Z-0.700 I0.045 J0.014
G3 X0.033 Y0.033 Z-0.700 I-0.014 J0.045
G1 X0.015 Y0.015 Z-0.700
G3 X-0.006 Y0.021 Z-0.700 I-0.015 J-0.015
G3 X-0.021 Y-0.007 Z-0.700 I0.007 J-0.021
G3 X0.007 Y-0.021 Z-0.700 I0.021 J0.007
G3 X0.015 Y0.015 Z-0.700 I-0.007 J0.021
G0 Z0.000
G0 X0.210 Y0.210 Z0.000
G0 X0.210 Y0.210 Z0.100
G1 X0.210 Y0.210 Z-0.700
G3 X-0.089 Y0.284 Z-0.700 I-0.210 J-0.210
G3 X-0.284 Y-0.089 Z-0.700 I0.089 J-0.284
G3 X0.089 Y-0.284 Z-0.700 I0.284 J0.089
G3 X0.210 Y0.210 Z-0.700 I-0.089 J0.284
G0 Z0.000
G0 X0.352 Y0.352 Z0.000
G0 X0.352 Y0.352 Z0.100
G1 X0.352 Y0.352 Z-0.700
G3 X-0.149 Y0.475 Z-0.700 I-0.352 J-0.352
G3 X0.149 Y-0.475 Z-0.700 I0.149 J-0.475
G3 X0.352 Y0.352 Z-0.700 I-0.149 J0.475
G0 Z0.000
G0 X0.423 Y0.423 Z0.000
G0 X0.423 Y0.423 Z0.100
G1 X0.423 Y0.423 Z-0.700
G3 X-0.179 Y0.571 Z-0.700 I-0.423 J-0.423
G3 X0.179 Y-0.571 Z-0.700 I0.179 J-0.571
G3 X0.423 Y0.423 Z-0.700 I-0.179 J0.571
G0 Z0.000
G0 X0.246 Y0.246 Z0.000
G0 X0.246 Y0.246 Z0.100
G1 X0.246 Y0.246 Z-0.800
G3 X-0.104 Y0.332 Z-0.800 I-0.246 J-0.246
G3 X-0.332 Y-0.105 Z-0.800 I0.104 J-0.332
G3 X0.106 Y-0.331 Z-0.800 I0.331 J0.105
G3 X0.246 Y0.246 Z-0.800 I-0.106 J0.331
G0 Z0.000
G0 X0.175 Y0.175 Z0.000
G0 X0.175 Y0.175 Z0.100
G1 X0.175 Y0.175 Z-0.800
G3 X-0.074 Y0.236 Z-0.800 I-0.175 J-0.175
G3 X-0.236 Y-0.075 Z-0.800 I0.074 J-0.236
G3 X0.075 Y-0.236 Z-0.800 I0.236 J0.075
G3 X0.175 Y0.175 Z-0.800 I-0.075 J0.236
G0 Z0.000
G0 X0.104 Y0.104 Z0.000
G0 X0.104 Y0.104 Z0.100
G1 X0.104 Y0.104 Z-0.800
G3 X-0.002 Y0.147 Z-0.800 I-0.104 J-0.104
G3 X-0.147 Y-0.002 Z-0.800 I0.002 J-0.147
G3 X0.003 Y-0.147 Z-0.800 I0.147 J0.002
G3 X0.104 Y0.104 Z-0.800 I-0.003 J0.147
G0 Z0.000
G0 X0.033 Y0.033 Z0.000
G0 X0.033 Y0.033 Z0.100
G1 X0.033 Y0.033 Z-0.800
G3 X-0.001 Y0.047 Z-0.800 I-0.033 J-0.033
G3 X-0.047 Y-0.001 Z-0.800 I0.000 J-0.047
G3 X0.001 Y-0.047 Z-0.800 I0.047 J0.001
G3 X0.033 Y0.033 Z-0.800 I-0.001 J0.047
G1 X0.015 Y0.015 Z-0.800
G3 X0.003 Y0.022 Z-0.800 I-0.015 J-0.015
G1 X-0.000 Y0.022 Z-0.800
G3 X-0.003 Y-0.022 Z-0.800 I0.000 J-0.022
G3 X0.015 Y0.015 Z-0.800 I0.003 J0.022
G0 Z0.000
G0 X0.317 Y0.317 Z0.000
G0 X0.317 Y0.317 Z0.100
G1 X0.317 Y0.317 Z-0.800
G3 X-0.134 Y0.428 Z-0.800 I-0.317 J-0.317
G3 X-0.427 Y-0.135 Z-0.800 I0.134 J-0.428
G3 X0.136 Y-0.427 Z-0.800 I0.427 J0.135
G3 X0.317 Y0.317 Z-0.800 I-0.137 J0.427
G0 Z0.000
G0 X0.388 Y0.387 Z0.000
G0 X0.388 Y0.387 Z0.100
G1 X0.388 Y0.387 Z-0.800
G3 X-0.164 Y0.523 Z-0.800 I-0.388 J-0.387
G3 X-0.523 Y-0.165 Z-0.800 I0.164 J-0.523
G3 X0.167 Y-0.522 Z-0.800 I0.523 J0.165
G3 X0.388 Y0.387 Z-0.800 I-0.167 J0.522
G0 Z0.000
G0 X0.281 Y0.281 Z0.000
G0 X0.281 Y0.281 Z0.100
G1 X0.281 Y0.281 Z-0.900
G3 X-0.106 Y0.383 Z-0.900 I-0.281 J-0.281
G3 X0.106 Y-0.383 Z-0.900 I0.106 J-0.383
G3 X0.281 Y0.281 Z-0.900 I-0.106 J0.383
G0 Z0.000
G0 X0.210 Y0.210 Z0.000
G0 X0.210 Y0.210 Z0.100
G1 X0.210 Y0.210 Z-0.900
G3 X-0.079 Y0.287 Z-0.900 I-0.210 J-0.210
G3 X0.079 Y-0.287 Z-0.900 I0.079 J-0.287
G3 X0.210 Y0.210 Z-0.900 I-0.079 J0.287
G0 Z0.000
G0 X0.139 Y0.139 Z0.000
G0 X0.139 Y0.139 Z0.100
G1 X0.139 Y0.139 Z-0.900
G3 X-0.052 Y0.190 Z-0.900 I-0.139 J-0.139
G3 X0.053 Y-0.190 Z-0.900 I0.053 J-0.190
G3 X0.139 Y0.139 Z-0.900 I-0.053 J0.190
G0 Z0.000
G0 X0.069 Y0.068 Z0.000
G0 X0.069 Y0.068 Z0.100
G1 X0.069 Y0.068 Z-0.900
G3 X-0.026 Y0.093 Z-0.900 I-0.069 J-0.068
G3 X0.026 Y-0.093 Z-0.900 I0.026 J-0.093
G3 X0.069 Y0.068 Z-0.900 I-0.026 J0.093
G1 X0.051 Y0.051 Z-0.900
G3 X-0.019 Y0.069 Z-0.900 I-0.051 J-0.051
G3 X0.019 Y-0.069 Z-0.900 I0.019 J-0.069
G3 X0.051 Y0.051 Z-0.900 I-0.019 J0.069
G1 X0.033 Y0.033 Z-0.900
G3 X-0.012 Y0.045 Z-0.900 I-0.033 J-0.033
G3 X0.012 Y-0.045 Z-0.900 I0.012 J-0.045
G3 X0.033 Y0.033 Z-0.900 I-0.012 J0.045
G1 X0.015 Y0.015 Z-0.900
G3 X-0.006 Y0.021 Z-0.900 I-0.015 J-0.015
G3 X0.006 Y-0.021 Z-0.900 I0.006 J-0.021
G3 X0.015 Y0.015 Z-0.900 I-0.006 J0.021
G0 Z0.000
G0 X0.352 Y0.352 Z0.000
G0 X0.352 Y0.352 Z0.100
G1 X0.352 Y0.352 Z-0.900
G3 X-0.133 Y0.480 Z-0.900 I-0.352 J-0.352
G3 X0.133 Y-0.480 Z-0.900 I0.133 J-0.480
G3 X0.352 Y0.352 Z-0.900 I-0.133 J0.480
G0 Z0.000
G0 X0.246 Y0.246 Z0.000
G0 X0.246 Y0.246 Z0.100
G1 X0.246 Y0.246 Z-1.000
G3 X-0.119 Y0.326 Z-1.000 I-0.246 J-0.246
G3 X0.119 Y-0.326 Z-1.000 I0.119 J-0.326
G3 X0.246 Y0.246 Z-1.000 I-0.119 J0.326
G0 Z0.000
G0 X0.175 Y0.175 Z0.000
G0 X0.175 Y0.175 Z0.100
G1 X0.175 Y0.175 Z-1.000
G3 X-0.085 Y0.232 Z-1.000 I-0.175 J-0.175
G3 X0.085 Y-0.232 Z-1.000 I0.085 J-0.232
G3 X0.175 Y0.175 Z-1.000 I-0.085 J0.232
G0 Z0.000
G0 X0.104 Y0.104 Z0.000
G0 X0.104 Y0.104 Z0.100
G1 X0.104 Y0.104 Z-1.000
G3 X-0.050 Y0.138 Z-1.000 I-0.104 J-0.104
G3 X0.050 Y-0.138 Z-1.000 I0.050 J-0.138
G3 X0.104 Y0.104 Z-1.000 I-0.050 J0.138
G0 Z0.000
G0 X0.033 Y0.033 Z0.000
G0 X0.033 Y0.033 Z0.100
G1 X0.033 Y0.033 Z-1.000
G3 X-0.016 Y0.044 Z-1.000 I-0.033 J-0.033
G3 X0.016 Y-0.044 Z-1.000 I0.016 J-0.044
G3 X0.033 Y0.033 Z-1.000 I-0.016 J0.044
G1 X0.015 Y0.015 Z-1.000
G3 X-0.007 Y0.020 Z-1.000 I-0.015 J-0.015
G3 X0.007 Y-0.020 Z-1.000 I0.007 J-0.020
G3 X0.015 Y0.015 Z-1.000 I-0.007 J0.020
G0 Z0.000
G0 X0.317 Y0.317 Z0.000
G0 X0.317 Y0.317 Z0.100
G1 X0.317 Y0.317 Z-1.000
G3 X-0.154 Y0.421 Z-1.000 I-0.317 J-0.317
G3 X0.154 Y-0.421 Z-1.000 I0.154 J-0.421
G3 X0.317 Y0.317 Z-1.000 I-0.154 J0.421
G0 Z0.000
G0 X0.210 Y0.210 Z0.000
G0 X0.210 Y0.210 Z0.100
G1 X0.210 Y0.210 Z-1.100
G3 X-0.093 Y0.282 Z-1.100 I-0.210 J-0.210
G3 X0.093 Y-0.282 Z-1.100 I0.093 J-0.282
G3 X0.210 Y0.210 Z-1.100 I-0.093 J0.282
G0 Z0.000
G0 X0.139 Y0.139 Z0.000
G0 X0.139 Y0.139 Z0.100
G1 X0.139 Y0.139 Z-1.100
G3 X-0.061 Y0.187 Z-1.100 I-0.139 J-0.139
G3 X0.061 Y-0.187 Z-1.100 I0.061 J-0.187
G3 X0.139 Y0.139 Z-1.100 I-0.061 J0.187
G0 Z0.000
G0 X0.068 Y0.068 Z0.000
G0 X0.068 Y0.068 Z0.100
G1 X0.068 Y0.068 Z-1.100
G3 X-0.030 Y0.091 Z-1.100 I-0.068 J-0.068
G3 X0.030 Y-0.091 Z-1.100 I0.030 J-0.091
G3 X0.068 Y0.068 Z-1.100 I-0.030 J0.091
G1 X0.050 Y0.050 Z-1.100
G3 X-0.022 Y0.068 Z-1.100 I-0.050 J-0.050
G3 X0.022 Y-0.068 Z-1.100 I0.022 J-0.068
G3 X0.050 Y0.050 Z-1.100 I-0.022 J0.068
G1 X0.033 Y0.033 Z-1.100
G3 X-0.014 Y0.044 Z-1.100 I-0.033 J-0.033
G3 X0.014 Y-0.044 Z-1.100 I0.014 J-0.044
G3 X0.033 Y0.033 Z-1.100 I-0.014 J0.044
G1 X0.015 Y0.015 Z-1.100
G3 X-0.007 Y0.020 Z-1.100 I-0.015 J-0.015
G3 X0.007 Y-0.020 Z-1.100 I0.007 J-0.020
G3 X0.015 Y0.015 Z-1.100 I-0.007 J0.020
G0 Z0.000
G0 X0.281 Y0.281 Z0.000
G0 X0.281 Y0.281 Z0.100
G1 X0.281 Y0.281 Z-1.100
G3 X-0.124 Y0.377 Z-1.100 I-0.281 J-0.281
G3 X0.124 Y-0.377 Z-1.100 I0.124 J-0.377
G3 X0.281 Y0.281 Z-1.100 I-0.124 J0.377
G0 Z0.000
G0 X0.175 Y0.175 Z0.000
G0 X0.175 Y0.175 Z0.100
G1 X0.175 Y0.175 Z-1.200
G3 X-0.070 Y0.237 Z-1.200 I-0.175 J-0.175
G3 X0.070 Y-0.237 Z-1.200 I0.070 J-0.237
G3 X0.175 Y0.175 Z-1.200 I-0.070 J0.237
G0 Z0.000
G0 X0.104 Y0.104 Z0.000
G0 X0.104 Y0.104 Z0.100
G1 X0.104 Y0.104 Z-1.200
G3 X-0.041 Y0.141 Z-1.200 I-0.104 J-0.104
G3 X0.041 Y-0.141 Z-1.200 I0.041 J-0.141
G3 X0.104 Y0.104 Z-1.200 I-0.041 J0.141
G0 Z0.000
G0 X0.033 Y0.033 Z0.000
G0 X0.033 Y0.033 Z0.100
G1 X0.033 Y0.033 Z-1.200
G3 X-0.013 Y0.044 Z-1.200 I-0.033 J-0.033
G3 X0.013 Y-0.044 Z-1.200 I0.013 J-0.044
G3 X0.033 Y0.033 Z-1.200 I-0.013 J0.044
G1 X0.015 Y0.015 Z-1.200
G3 X-0.006 Y0.020 Z-1.200 I-0.015 J-0.015
G3 X0.006 Y-0.020 Z-1.200 I0.006 J-0.020
G3 X0.015 Y0.015 Z-1.200 I-0.006 J0.020
G0 Z0.000
G0 X0.246 Y0.246 Z0.000
G0 X0.246 Y0.246 Z0.100
G1 X0.246 Y0.246 Z-1.200
G3 X-0.098 Y0.333 Z-1.200 I-0.246 J-0.246
G3 X0.098 Y-0.333 Z-1.200 I0.098 J-0.333
G3 X0.246 Y0.246 Z-1.200 I-0.098 J0.333
G0 Z0.000
G0 X0.139 Y0.139 Z0.000
G0 X0.139 Y0.139 Z0.100
G1 X0.139 Y0.139 Z-1.300
G3 X-0.076 Y0.181 Z-1.300 I-0.139 J-0.139
G3 X0.076 Y-0.181 Z-1.300 I0.076 J-0.181
G3 X0.139 Y0.139 Z-1.300 I-0.076 J0.181
G0 Z0.000
G0 X0.068 Y0.068 Z0.000
G0 X0.068 Y0.068 Z0.100
G1 X0.068 Y0.068 Z-1.300
G3 X-0.037 Y0.089 Z-1.300 I-0.068 J-0.068
G3 X0.037 Y-0.089 Z-1.300 I0.037 J-0.089
G3 X0.068 Y0.068 Z-1.300 I-0.037 J0.089
G1 X0.050 Y0.050 Z-1.300
G3 X-0.027 Y0.066 Z-1.300 I-0.050 J-0.050
G3 X0.027 Y-0.066 Z-1.300 I0.027 J-0.066
G3 X0.050 Y0.050 Z-1.300 I-0.027 J0.066
G1 X0.032 Y0.032 Z-1.300
G3 X-0.018 Y0.042 Z-1.300 I-0.033 J-0.032
G3 X0.018 Y-0.042 Z-1.300 I0.018 J-0.042
G3 X0.032 Y0.032 Z-1.300 I-0.018 J0.042
G1 X0.015 Y0.015 Z-1.300
G3 X-0.008 Y0.019 Z-1.300 I-0.015 J-0.015
G3 X0.008 Y-0.019 Z-1.300 I0.008 J-0.019
G3 X0.015 Y0.015 Z-1.300 I-0.008 J0.019
G0 Z0.000
G0 X0.210 Y0.210 Z0.000
G0 X0.210 Y0.210 Z0.100
G1 X0.210 Y0.210 Z-1.300
G3 X-0.115 Y0.274 Z-1.300 I-0.210 J-0.210
G3 X0.115 Y-0.274 Z-1.300 I0.115 J-0.274
G3 X0.210 Y0.210 Z-1.300 I-0.115 J0.274
G1 X0.175 Y0.175 Z-1.400
G3 X-0.074 Y0.236 Z-1.400 I-0.175 J-0.174
G3 X-0.236 Y-0.074 Z-1.400 I0.074 J-0.236
G3 X0.074 Y-0.236 Z-1.400 I0.236 J0.074
G3 X0.175 Y0.175 Z-1.400 I-0.074 J0.236
G0 Z0.000
G0 X0.104 Y0.103 Z0.000
G0 X0.104 Y0.103 Z0.100
G1 X0.104 Y0.103 Z-1.400
G3 X-0.044 Y0.140 Z-1.400 I-0.104 J-0.103
G3 X-0.140 Y-0.044 Z-1.400 I0.044 J-0.140
G3 X0.044 Y-0.140 Z-1.400 I0.140 J0.044
G3 X0.104 Y0.103 Z-1.400 I-0.044 J0.140
G0 Z0.000
G0 X0.033 Y0.032 Z0.000
G0 X0.033 Y0.032 Z0.100
G1 X0.033 Y0.032 Z-1.400
G3 X-0.014 Y0.044 Z-1.400 I-0.032 J-0.032
G3 X-0.044 Y-0.014 Z-1.400 I0.014 J-0.044
G3 X0.014 Y-0.044 Z-1.400 I0.044 J0.014
G3 X0.033 Y0.032 Z-1.400 I-0.014 J0.044
G1 X0.015 Y0.015 Z-1.400
G3 X-0.006 Y0.020 Z-1.400 I-0.015 J-0.015
G3 X-0.020 Y-0.006 Z-1.400 I0.006 J-0.020
G3 X0.006 Y-0.020 Z-1.400 I0.020 J0.006
G3 X0.015 Y0.015 Z-1.400 I-0.006 J0.020
G1 X0.014 Y0.014 Z-1.500
G3 X-0.008 Y0.018 Z-1.500 I-0.014 J-0.014
G3 X-0.018 Y-0.008 Z-1.500 I0.008 J-0.018
G3 X0.008 Y-0.018 Z-1.500 I0.018 J0.008
G3 X0.014 Y0.014 Z-1.500 I-0.008 J0.018
G1 X0.032 Y0.032 Z-1.500
G3 X-0.018 Y0.041 Z-1.500 I-0.032 J-0.032
G3 X-0.041 Y-0.018 Z-1.500 I0.018 J-0.041
G3 X0.018 Y-0.041 Z-1.500 I0.041 J0.018
G3 X0.032 Y0.032 Z-1.500 I-0.018 J0.041
G1 X0.050 Y0.050 Z-1.500
G3 X-0.028 Y0.064 Z-1.500 I-0.049 J-0.050
G3 X-0.064 Y-0.028 Z-1.500 I0.028 J-0.064
G3 X0.028 Y-0.064 Z-1.500 I0.064 J0.028
G3 X0.050 Y0.050 Z-1.500 I-0.028 J0.064
G1 X0.067 Y0.067 Z-1.500
G3 X-0.038 Y0.087 Z-1.500 I-0.067 J-0.067
G3 X-0.087 Y-0.038 Z-1.500 I0.038 J-0.087
G3 X0.038 Y-0.087 Z-1.500 I0.087 J0.038
G3 X0.067 Y0.067 Z-1.500 I-0.038 J0.087
G0 Z0.000
G0 X0.138 Y0.139 Z0.000
G0 X0.138 Y0.139 Z0.100
G1 X0.138 Y0.139 Z-1.500
G3 X-0.078 Y0.180 Z-1.500 I-0.138 J-0.139
G3 X0.078 Y-0.180 Z-1.500 I0.078 J-0.180
G3 X0.138 Y0.139 Z-1.500 I-0.078 J0.180
G0 Z0.000
G0 X0.031 Y0.031 Z0.000
G0 X0.031 Y0.031 Z0.100
G1 X0.031 Y0.031 Z-1.600
G3 X-0.021 Y0.039 Z-1.600 I-0.031 J-0.031
G3 X0.021 Y-0.039 Z-1.600 I0.021 J-0.039
G3 X0.031 Y0.031 Z-1.600 I-0.021 J0.039
G1 X0.013 Y0.013 Z-1.600
G3 X-0.009 Y0.017 Z-1.600 I-0.013 J-0.013
G3 X0.009 Y-0.017 Z-1.600 I0.009 J-0.017
G3 X0.013 Y0.013 Z-1.600 I-0.009 J0.017
G0 Z0.000
G0 X0.102 Y0.103 Z0.000
G0 X0.102 Y0.103 Z0.100
G1 X0.102 Y0.103 Z-1.600
G3 X-0.069 Y0.127 Z-1.600 I-0.102 J-0.103
G3 X0.069 Y-0.127 Z-1.600 I0.069 J-0.127
G3 X0.102 Y0.103 Z-1.600 I-0.069 J0.127
G1 X0.049 Y0.049 Z-1.700
G3 X-0.036 Y0.059 Z-1.700 I-0.049 J-0.049
G3 X-0.059 Y-0.036 Z-1.700 I0.036 J-0.059
G3 X0.036 Y-0.059 Z-1.700 I0.059 J0.036
G3 X0.049 Y0.049 Z-1.700 I-0.036 J0.059
G1 X0.031 Y0.031 Z-1.700
G3 X-0.023 Y0.037 Z-1.700 I-0.031 J-0.031
G3 X-0.037 Y-0.023 Z-1.700 I0.023 J-0.037
G3 X0.023 Y-0.037 Z-1.700 I0.037 J0.023
G3 X0.031 Y0.031 Z-1.700 I-0.023 J0.037
G1 X0.013 Y0.013 Z-1.700
G3 X-0.010 Y0.016 Z-1.700 I-0.013 J-0.013
G3 X-0.016 Y-0.010 Z-1.700 I0.010 J-0.016
G3 X0.010 Y-0.016 Z-1.700 I0.016 J0.010
G3 X0.013 Y0.013 Z-1.700 I-0.010 J0.016
G1 X0.067 Y0.067 Z-1.700
G3 X-0.049 Y0.080 Z-1.700 I-0.067 J-0.067
G3 X-0.080 Y-0.049 Z-1.700 I0.049 J-0.080
G3 X0.049 Y-0.080 Z-1.700 I0.080 J0.049
G3 X0.067 Y0.067 Z-1.700 I-0.049 J0.080
G1 X0.031 Y0.030 Z-1.800
G3 X0.021 Y0.038 Z-1.800 I-0.031 J-0.031
G1 X0.006 Y0.043 Z-1.800
G3 X-0.018 Y-0.039 Z-1.800 I-0.006 J-0.043
G3 X0.031 Y0.030 Z-1.800 I0.018 J0.039
G1 X0.008 Y0.016 Z-1.800
G1 X0.003 Y0.017 Z-1.800
G3 X-0.007 Y-0.016 Z-1.800 I-0.003 J-0.018
G3 X0.008 Y0.016 Z-1.800 I0.007 J0.016
G0 Z0.000
(finish operation: Pocket3D)
(begin postamble)
M05
M09
G17 G90 G80 G40
M30
